!!!!SEGMENT: pl-cz--iii-353--002_koperski-maksymilian--et-incarnatus-es.krn
!!!cenid: 18xx:907
!!!COM: Koperski, Maksymilian
!!!COM-rismID: pe30060120
!!!CDT: 1812-1886
!!!CNT:
!!!OTL: Et incarnatus es
!!!PDT:
!!!AGN: Sacred
!!!SMS-siglum: PL-CZ
!!!SMS-shelfmark: III-353
!!!SMS-shelfwork: 002 W
!!!SMS-variant:
!!!SMS-altvar:
!!!NIFC-rismSourceID: 300000603
!!!NIFC-islandoraID: pl-cz:37937
!!!URL-pdf-islandora: https://repozytorium.nifc.pl/islandora/object/pl-cz%3A37937/datastream/PDF/view
!!!URL-scan:
!!!ONB-nifc: UWAGA: Pod Twoją obronę i Et incarnatus est to osobne utwory. Uwaga: Partia vl 2 po drugiej stronie partii vla pierwszego utworu
!!!AIN: 1 alto 1 bass 2 clars 2 clrno 1 soprn 1 tenor 2 violn
!!!key: E-
**kern	**dynam	**kern	**dynam	**kern	**kern	**text	**kern	**text	**dynam	**kern	**text	**dynam	**kern	**dynam	**kern	**dynam	**kern	**dynam	**kern	**dynam
*group4	*	*group4	*	*group3	*group3	*	*group3	*	*	*group3	*	*	*group2	*	*group2	*	*group1	*	*group1	*
*part10	*part10	*part9	*part9	*part8	*part7	*part7	*part6	*part6	*part6	*part5	*part5	*part5	*part4	*part4	*part3	*part3	*part2	*part2	*part1	*part1
*staff10	*	*staff9	*	*staff8	*staff7	*staff7	*staff6	*staff6	*	*staff5	*staff5	*	*staff4	*	*staff3	*	*staff2	*	*staff1	*
*I"Violino 2do	*	*I"Violino 1mo	*	*I"Baſso	*I"Tenore.	*	*I"Alto	*	*	*I"Soprano	*	*	*I"Clarino 2do in Es	*	*I"Clarino 1m in Es.	*	*I"Clarinetto 2do in B.	*	*I"Clarinetto. 1mo in B.	*
*I'vl 2	*	*I'vl 1	*	*I'B	*I'T	*	*I'A	*	*	*I'S	*	*	*I'clno 2 in Es	*	*I'clno 1 in Es	*	*I'cl 2 in B	*	*I'cl 1 in B	*
*Ivioln	*	*Ivioln	*	*Ibass	*Itenor	*	*Ialto	*	*	*Isoprn	*	*	*Iclrno	*	*Iclrno	*	*Iclars	*	*Iclars	*
*ICstr	*	*ICstr	*	*ICvox	*ICvox	*	*ICvox	*	*	*ICvox	*	*	*ICbras	*	*ICbras	*	*ICww	*	*ICww	*
*clefG2	*	*clefG2	*	*clefF4	*clefC4	*	*clefC3	*	*	*clefC1	*	*	*clefG2	*	*clefG2	*	*clefG2	*	*clefG2	*
*	*	*	*	*	*	*	*	*	*	*	*	*	*ITrd-2c-3	*	*ITrd-2c-3	*	*ITrd1c2	*	*ITrd1c2	*
*k[b-e-a-]	*	*k[b-e-a-]	*	*k[b-e-a-]	*k[b-e-a-]	*	*k[b-e-a-]	*	*	*k[b-e-a-]	*	*	*k[b-e-a-]	*	*k[b-e-a-]	*	*k[b-e-a-]	*	*k[b-e-a-]	*
*E-:	*	*E-:	*	*E-:	*E-:	*	*E-:	*	*	*E-:	*	*	*E-:	*	*E-:	*	*E-:	*	*E-:	*
*M4/4	*	*M4/4	*	*M4/4	*M4/4	*	*M4/4	*	*	*M4/4	*	*	*M4/4	*	*M4/4	*	*M4/4	*	*M4/4	*
*met(c)	*	*met(c)	*	*met(c)	*met(c)	*	*met(c)	*	*	*met(c)	*	*	*met(c)	*	*met(c)	*	*met(c)	*	*met(c)	*
*all\right	*	*all\right	*	*all\right	*all\right	*	*all\right	*	*	*all\right	*	*	*all\right	*	*all\right	*	*all\right	*	*all\right	*
=1	=1	=1	=1	=1	=1	=1	=1	=1	=1	=1	=1	=1	=1	=1	=1	=1	=1	=1	=1	=1
!	!	!	!	!	!	!	!	!	!	!	!	!	!	!	!LO:TX:a:t=13	!	!	!	!	!
!	!	!	!	!	!	!	!	!	!	!	!	!	!LO:TX:i:a:t=No 2\nAdagio	!	!LO:TX:b:t=13	!	!LO:TX:a:t=13	!	!LO:TX:a:t=13.	!
!LO:TX:i:a:t=Adagio	!	!LO:TX:i:a:t=Adagio	!	!LO:TX:a:t=No 2 Tacet	!LO:TX:i:a:t=Adagio Solo	!	!LO:TX:i:a:t=Adagio	!	!	!LO:TX:i:a:t=Adagio	!	!	!LO:TX:b:t=13	!	!LO:TX:i:a:t=No 2\nAdagio	!	!LO:TX:i:a:t=Adagio	!	!LO:TX:i:a:t=Adagio	!
!LO:TX:t=P:problem=zapis vl 2 w ramach partii a-vla, odnośnik "Drugie Offertoriu(m) iest Altowce przepisane"	!	!	!	!	!	!	!	!	!	!	!	!	!	!	!	!	!	!	!	!
!	!	!	!	!	!	!	!LO:TX:t=P:problem=wcześniejsze wersja utworu wpisana powyżej	!	!	!LO:TX:t=P:b-a-ee-:problem	!	!	!	!	!	!	!	!	!	!
!	!	!	!	!	!	!	!LO:TX:t=P:problem=kolejność znaków&colon;B-e-a-	!	!	!	!	!	!	!	!	!	!	!	!	!
!	!	!	!LO:DY:b:t=pia	!	!	!	!	!	!	!	!	!	!	!	!	!	!	!	!	!
!	!LO:DY:b	!	!	!	!	!	!	!	!	!	!	!	!	!	!	!	!	!	!	!
16r	p	16r	p	1ryy	(8.c\L	Et	1r	.	.	1r	.	.	1r	.	1r	.	1r	.	1r	.
!LO:TX:a:i:t=Stacato	!	!	!	!	!	!	!	!	!	!	!	!	!	!	!	!	!	!	!	!
16e-'/LL	.	16cc'\LL	.	.	.	.	.	.	.	.	.	.	.	.	.	.	.	.	.	.
16e-'/	.	16cc'\	.	.	.	.	.	.	.	.	.	.	.	.	.	.	.	.	.	.
16e-'/JJ	.	16cc'\JJ	.	.	32d\LL	.	.	.	.	.	.	.	.	.	.	.	.	.	.	.
.	.	.	.	.	32e-\JJJ)	.	.	.	.	.	.	.	.	.	.	.	.	.	.	.
16r	.	16r	.	.	8d\	in-	.	.	.	.	.	.	.	.	.	.	.	.	.	.
16a-'/	.	16dd'\	.	.	.	.	.	.	.	.	.	.	.	.	.	.	.	.	.	.
16r	.	16r	.	.	8c\	-car-	.	.	.	.	.	.	.	.	.	.	.	.	.	.
16a-'/	.	16cc'\	.	.	.	.	.	.	.	.	.	.	.	.	.	.	.	.	.	.
.	.	.	.	.	16qqc/	.	.	.	.	.	.	.	.	.	.	.	.	.	.	.
16r	.	16r	.	.	8.Bn\	-na-	.	.	.	.	.	.	.	.	.	.	.	.	.	.
16d'/LL	.	16bn'\LL	.	.	.	.	.	.	.	.	.	.	.	.	.	.	.	.	.	.
16d'/	.	16b'\	.	.	.	.	.	.	.	.	.	.	.	.	.	.	.	.	.	.
16d'/JJ	.	16b'\JJ	.	.	32An\LLL	-tus	.	.	.	.	.	.	.	.	.	.	.	.	.	.
.	.	.	.	.	32B\JJJ	.	.	.	.	.	.	.	.	.	.	.	.	.	.	.
16r	.	16r	.	.	8c\	est	.	.	.	.	.	.	.	.	.	.	.	.	.	.
16g'/LL	.	16cc'\LL	.	.	.	.	.	.	.	.	.	.	.	.	.	.	.	.	.	.
16g'/	.	16cc'\	.	.	16r	.	.	.	.	.	.	.	.	.	.	.	.	.	.	.
16g'/JJ	.	16cc'\JJ	.	.	16G/	de	.	.	.	.	.	.	.	.	.	.	.	.	.	.
=2	=2	=2	=2	=2	=2	=2	=2	=2	=2	=2	=2	=2	=2	=2	=2	=2	=2	=2	=2	=2
!	!	!	!	!	!LO:TX:t=P:problem=mixed beam	!	!	!	!	!	!	!	!	!	!	!	!	!	!	!
16r	.	16r	.	1ryy	16G/LL	Spi-	1r	.	.	1r	.	.	1r	.	1r	.	1r	.	1r	.
16g/LL	.	16dd\LL	.	.	16f\JJ	.	.	.	.	.	.	.	.	.	.	.	.	.	.	.
16g/	.	16dd\	.	.	4f\	-ri-	.	.	.	.	.	.	.	.	.	.	.	.	.	.
16g/JJ	.	16dd\JJ	.	.	.	.	.	.	.	.	.	.	.	.	.	.	.	.	.	.
*rep	*	*	*	*	*	*	*	*	*	*	*	*	*	*	*	*	*	*	*	*
16r	.	16r	.	.	.	.	.	.	.	.	.	.	.	.	.	.	.	.	.	.
16g/LL	.	16dd\LL	.	.	.	.	.	.	.	.	.	.	.	.	.	.	.	.	.	.
16g/	.	16dd\	.	.	16e-\LL	-tu	.	.	.	.	.	.	.	.	.	.	.	.	.	.
16g/JJ	.	16dd\JJ	.	.	16d\JJ	.	.	.	.	.	.	.	.	.	.	.	.	.	.	.
*Xrep	*	*	*	*	*	*	*	*	*	*	*	*	*	*	*	*	*	*	*	*
*rep	*	*	*	*	*	*	*	*	*	*	*	*	*	*	*	*	*	*	*	*
.	.	.	.	.	16qqf/	.	.	.	.	.	.	.	.	.	.	.	.	.	.	.
16r	.	16r	.	.	16e-\LL	san-	.	.	.	.	.	.	.	.	.	.	.	.	.	.
16g/LL	.	16ee-\LL	.	.	32d\L	.	.	.	.	.	.	.	.	.	.	.	.	.	.	.
.	.	.	.	.	32c\JJJ	.	.	.	.	.	.	.	.	.	.	.	.	.	.	.
16g/	.	16ee-\	.	.	8c\	-cto	.	.	.	.	.	.	.	.	.	.	.	.	.	.
16g/JJ	.	16ee-\JJ	.	.	.	.	.	.	.	.	.	.	.	.	.	.	.	.	.	.
*Xrep	*	*	*	*	*	*	*	*	*	*	*	*	*	*	*	*	*	*	*	*
*rep	*	*	*	*	*	*	*	*	*	*	*	*	*	*	*	*	*	*	*	*
16r	.	16r	.	.	8r	.	.	.	.	.	.	.	.	.	.	.	.	.	.	.
16g/LL	.	16ee-\LL	.	.	.	.	.	.	.	.	.	.	.	.	.	.	.	.	.	.
!	!	!	!	!	!LO:TX:i:a:t=uwazac trzeba dobrze:zapis przy nazwie głosu	!	!	!	!	!	!	!	!	!	!	!	!	!	!	!
16g/	.	16ee-\	.	.	(16e-\LL	et	.	.	.	.	.	.	.	.	.	.	.	.	.	.
16g/JJ	.	16ee-\JJ	.	.	16c\JJ)	.	.	.	.	.	.	.	.	.	.	.	.	.	.	.
*Xrep	*	*	*	*	*	*	*	*	*	*	*	*	*	*	*	*	*	*	*	*
=3	=3	=3	=3	=3	=3	=3	=3	=3	=3	=3	=3	=3	=3	=3	=3	=3	=3	=3	=3	=3
*	*	*rep	*	*	*	*	*	*	*	*	*	*	*	*	*	*	*	*	*	*
.	.	.	.	.	8qqB-/	.	.	.	.	.	.	.	.	.	.	.	.	.	.	.
16r	.	16r	.	1ryy	(4A-\	in-	1r	.	.	1r	.	.	1r	.	1r	.	1r	.	1r	.
16a-/LL	.	16ee-\LL	.	.	.	.	.	.	.	.	.	.	.	.	.	.	.	.	.	.
16a-/	.	16ee-\	.	.	.	.	.	.	.	.	.	.	.	.	.	.	.	.	.	.
16a-/JJ	.	16ee-\JJ	.	.	.	.	.	.	.	.	.	.	.	.	.	.	.	.	.	.
*	*	*Xrep	*	*	*	*	*	*	*	*	*	*	*	*	*	*	*	*	*	*
*	*	*rep	*	*	*	*	*	*	*	*	*	*	*	*	*	*	*	*	*	*
16r	.	16r	.	.	16A-\LL	-car-	.	.	.	.	.	.	.	.	.	.	.	.	.	.
16a-/LL	.	16ee-\LL	.	.	16B-\JJ)	.	.	.	.	.	.	.	.	.	.	.	.	.	.	.
16a-/	.	16ee-\	.	.	16c\LL	-na-	.	.	.	.	.	.	.	.	.	.	.	.	.	.
16a-/JJ	.	16ee-\JJ	.	.	16A-\JJ	.	.	.	.	.	.	.	.	.	.	.	.	.	.	.
*	*	*Xrep	*	*	*	*	*	*	*	*	*	*	*	*	*	*	*	*	*	*
*	*	*rep	*	*	*	*	*	*	*	*	*	*	*	*	*	*	*	*	*	*
16r	.	16r	.	.	16F#X/	-tus	.	.	.	.	.	.	.	.	.	.	.	.	.	.
16f#X/LL	.	16ee-\LL	.	.	16F#/	.	.	.	.	.	.	.	.	.	.	.	.	.	.	.
16f#/	.	16ee-\	.	.	8F#/	est	.	.	.	.	.	.	.	.	.	.	.	.	.	.
16f#/JJ	.	16ee-\JJ	.	.	.	.	.	.	.	.	.	.	.	.	.	.	.	.	.	.
*	*	*Xrep	*	*	*	*	*	*	*	*	*	*	*	*	*	*	*	*	*	*
*	*	*rep	*	*	*	*	*	*	*	*	*	*	*	*	*	*	*	*	*	*
16r	.	16r	.	.	8r	.	.	.	.	.	.	.	.	.	.	.	.	.	.	.
16an/LL	.	16ee-\LL	.	.	.	.	.	.	.	.	.	.	.	.	.	.	.	.	.	.
16a/	.	16ee-\	.	.	16r	.	.	.	.	.	.	.	.	.	.	.	.	.	.	.
16a/JJ	.	16ee-\JJ	.	.	16An\	de	.	.	.	.	.	.	.	.	.	.	.	.	.	.
*	*	*Xrep	*	*	*	*	*	*	*	*	*	*	*	*	*	*	*	*	*	*
=4	=4	=4	=4	=4	=4	=4	=4	=4	=4	=4	=4	=4	=4	=4	=4	=4	=4	=4	=4	=4
16r	.	16r	.	1ryy	8.Gt\L	Spi-	1r	.	.	1r	.	.	1r	.	1r	.	1r	.	1r	.
16g/LL	.	16dd\LL	.	.	.	.	.	.	.	.	.	.	.	.	.	.	.	.	.	.
16g/	.	16dd\	.	.	.	.	.	.	.	.	.	.	.	.	.	.	.	.	.	.
16g/JJ	.	16dd\JJ	.	.	16Bn\Jk	.	.	.	.	.	.	.	.	.	.	.	.	.	.	.
*rep	*	*rep	*	*	*	*	*	*	*	*	*	*	*	*	*	*	*	*	*	*
16r	.	16r	.	.	8d\	-ri-	.	.	.	.	.	.	.	.	.	.	.	.	.	.
16g/LL	.	16dd\LL	.	.	.	.	.	.	.	.	.	.	.	.	.	.	.	.	.	.
16g/	.	16dd\	.	.	8f\	-tu	.	.	.	.	.	.	.	.	.	.	.	.	.	.
16g/JJ	.	16dd\JJ	.	.	.	.	.	.	.	.	.	.	.	.	.	.	.	.	.	.
*Xrep	*	*Xrep	*	*	*	*	*	*	*	*	*	*	*	*	*	*	*	*	*	*
*rep	*	*	*	*	*	*	*	*	*	*	*	*	*	*	*	*	*	*	*	*
16r	.	16r	.	.	(32e-\LLL	san-	.	.	.	.	.	.	.	.	.	.	.	.	.	.
.	.	.	.	.	32d\	.	.	.	.	.	.	.	.	.	.	.	.	.	.	.
16g/LL	.	16ee-\LL	.	.	32e-\	.	.	.	.	.	.	.	.	.	.	.	.	.	.	.
.	.	.	.	.	32f\JJJ)	.	.	.	.	.	.	.	.	.	.	.	.	.	.	.
16g/	.	16ee-\	.	.	8g\	-cto	.	.	.	.	.	.	.	.	.	.	.	.	.	.
16g/JJ	.	16ee-\JJ	.	.	.	.	.	.	.	.	.	.	.	.	.	.	.	.	.	.
*Xrep	*	*	*	*	*	*	*	*	*	*	*	*	*	*	*	*	*	*	*	*
*rep	*	*rep	*	*	*	*	*	*	*	*	*	*	*	*	*	*	*	*	*	*
16r	.	16r	.	.	8r	.	.	.	.	.	.	.	.	.	.	.	.	.	.	.
16g/LL	.	16ee-\LL	.	.	.	.	.	.	.	.	.	.	.	.	.	.	.	.	.	.
16g/	.	16ee-\	.	.	(32f\LLL	de	.	.	.	.	.	.	.	.	.	.	.	.	.	.
.	.	.	.	.	32e-\	.	.	.	.	.	.	.	.	.	.	.	.	.	.	.
16g/JJ	.	16ee-\JJ	.	.	32d\	.	.	.	.	.	.	.	.	.	.	.	.	.	.	.
.	.	.	.	.	32c\JJJ)	.	.	.	.	.	.	.	.	.	.	.	.	.	.	.
*Xrep	*	*Xrep	*	*	*	*	*	*	*	*	*	*	*	*	*	*	*	*	*	*
!LO:LB:g=original	!	!LO:LB:g=original	!	!	!LO:LB:g=original	!	!	!	!	!	!	!	!	!	!	!	!	!	!	!
=5	=5	=5	=5	=5	=5	=5	=5	=5	=5	=5	=5	=5	=5	=5	=5	=5	=5	=5	=5	=5
16r	.	16r	.	1ryy	8.f\	Spi-	1r	.	.	1r	.	.	1r	.	1r	.	1r	.	1r	.
16dd\LL	.	16ff\LL	.	.	.	.	.	.	.	.	.	.	.	.	.	.	.	.	.	.
16dd\	.	16ff\	.	.	.	.	.	.	.	.	.	.	.	.	.	.	.	.	.	.
16dd\JJ	.	16ff\JJ	.	.	16d\	-ri-	.	.	.	.	.	.	.	.	.	.	.	.	.	.
.	.	.	.	.	8qqf/	.	.	.	.	.	.	.	.	.	.	.	.	.	.	.
16r	.	16r	.	.	8e-\L	-tu	.	.	.	.	.	.	.	.	.	.	.	.	.	.
16cc\LL	.	16ee-\LL	.	.	.	.	.	.	.	.	.	.	.	.	.	.	.	.	.	.
16cc\	.	16ee-\	.	.	16d\L	.	.	.	.	.	.	.	.	.	.	.	.	.	.	.
16cc\JJ	.	16ee-\JJ	.	.	16c\JJ	.	.	.	.	.	.	.	.	.	.	.	.	.	.	.
16r	.	16r	.	.	(8Bn\L	san-	.	.	.	.	.	.	.	.	.	.	.	.	.	.
16bn\LL	.	16dd\LL	.	.	.	.	.	.	.	.	.	.	.	.	.	.	.	.	.	.
16b\	.	16dd\	.	.	16c\L	.	.	.	.	.	.	.	.	.	.	.	.	.	.	.
16b\JJ	.	16dd\JJ	.	.	16d\JJ)	.	.	.	.	.	.	.	.	.	.	.	.	.	.	.
*rep	*	*rep	*	*	*	*	*	*	*	*	*	*	*	*	*	*	*	*	*	*
16r	.	16r	.	.	8G/	-cto	.	.	.	.	.	.	.	.	.	.	.	.	.	.
16b\LL	.	16dd\LL	.	.	.	.	.	.	.	.	.	.	.	.	.	.	.	.	.	.
16b\	.	16dd\	.	.	8r	.	.	.	.	.	.	.	.	.	.	.	.	.	.	.
16b\JJ	.	16dd\JJ	.	.	.	.	.	.	.	.	.	.	.	.	.	.	.	.	.	.
*Xrep	*	*Xrep	*	*	*	*	*	*	*	*	*	*	*	*	*	*	*	*	*	*
=6	=6	=6	=6	=6	=6	=6	=6	=6	=6	=6	=6	=6	=6	=6	=6	=6	=6	=6	=6	=6
16r	.	16r	.	1ryy	8.c\	ex	1r	.	.	1r	.	.	1r	.	1r	.	1r	.	1r	.
16g/LL	.	16cc\LL	.	.	.	.	.	.	.	.	.	.	.	.	.	.	.	.	.	.
16g/	.	16cc\	.	.	.	.	.	.	.	.	.	.	.	.	.	.	.	.	.	.
16g/JJ	.	16cc\JJ	.	.	16d-X\	Ma-	.	.	.	.	.	.	.	.	.	.	.	.	.	.
*rep	*	*rep	*	*	*	*	*	*	*	*	*	*	*	*	*	*	*	*	*	*
16r	.	16r	.	.	8c\	-ri-	.	.	.	.	.	.	.	.	.	.	.	.	.	.
16g/LL	.	16cc\LL	.	.	.	.	.	.	.	.	.	.	.	.	.	.	.	.	.	.
16g/	.	16cc\	.	.	8B-\	-a	.	.	.	.	.	.	.	.	.	.	.	.	.	.
16g/JJ	.	16cc\JJ	.	.	.	.	.	.	.	.	.	.	.	.	.	.	.	.	.	.
*Xrep	*	*Xrep	*	*	*	*	*	*	*	*	*	*	*	*	*	*	*	*	*	*
*	*	*rep	*	*	*	*	*	*	*	*	*	*	*	*	*	*	*	*	*	*
16r	.	16r	.	.	16A-\	Vir-	.	.	.	.	.	.	.	.	.	.	.	.	.	.
16a-/LL	.	16cc\LL	.	.	16c\	-gi-	.	.	.	.	.	.	.	.	.	.	.	.	.	.
16a-/	.	16cc\	.	.	8F/	-ne	.	.	.	.	.	.	.	.	.	.	.	.	.	.
16a-/JJ	.	16cc\JJ	.	.	.	.	.	.	.	.	.	.	.	.	.	.	.	.	.	.
*	*	*Xrep	*	*	*	*	*	*	*	*	*	*	*	*	*	*	*	*	*	*
*rep	*	*rep	*	*	*	*	*	*	*	*	*	*	*	*	*	*	*	*	*	*
16r	.	16r	.	.	4r	.	.	.	.	.	.	.	.	.	.	.	.	.	.	.
16a-/LL	.	16cc\LL	.	.	.	.	.	.	.	.	.	.	.	.	.	.	.	.	.	.
16a-/	.	16cc\	.	.	.	.	.	.	.	.	.	.	.	.	.	.	.	.	.	.
16a-/JJ	.	16cc\JJ	.	.	.	.	.	.	.	.	.	.	.	.	.	.	.	.	.	.
*Xrep	*	*Xrep	*	*	*	*	*	*	*	*	*	*	*	*	*	*	*	*	*	*
=7	=7	=7	=7	=7	=7	=7	=7	=7	=7	=7	=7	=7	=7	=7	=7	=7	=7	=7	=7	=7
16r	.	16r	.	1ryy	8.f\	ex	1r	.	.	1r	.	.	1r	.	1r	.	1r	.	1r	.
16f/LL	.	16b-\LL	.	.	.	.	.	.	.	.	.	.	.	.	.	.	.	.	.	.
16f/	.	16b-\	.	.	.	.	.	.	.	.	.	.	.	.	.	.	.	.	.	.
16f/JJ	.	16b-\JJ	.	.	16d\	Ma-	.	.	.	.	.	.	.	.	.	.	.	.	.	.
*	*	*rep	*	*	*	*	*	*	*	*	*	*	*	*	*	*	*	*	*	*
16r	.	16r	.	.	16B-\LL	-ri-	.	.	.	.	.	.	.	.	.	.	.	.	.	.
16f/LL	.	16b-\LL	.	.	16A-\JJ	.	.	.	.	.	.	.	.	.	.	.	.	.	.	.
16f/	.	16b-\	.	.	16c\LL	-a	.	.	.	.	.	.	.	.	.	.	.	.	.	.
16f/JJ	.	16b-\JJ	.	.	16A-\JJ	.	.	.	.	.	.	.	.	.	.	.	.	.	.	.
*	*	*Xrep	*	*	*	*	*	*	*	*	*	*	*	*	*	*	*	*	*	*
*	*	*rep	*	*	*	*	*	*	*	*	*	*	*	*	*	*	*	*	*	*
!	!	!	!	!	!LO:N:vis=16.	!	!	!	!	!	!	!	!	!	!	!	!	!	!	!
16r	.	16r	.	.	16G/	Vir-	.	.	.	.	.	.	.	.	.	.	.	.	.	.
16g/LL	.	16b-\LL	.	.	16A-/	-gi-	.	.	.	.	.	.	.	.	.	.	.	.	.	.
16g/	.	16b-\	.	.	8B-\	-ne	.	.	.	.	.	.	.	.	.	.	.	.	.	.
16g/JJ	.	16b-\JJ	.	.	.	.	.	.	.	.	.	.	.	.	.	.	.	.	.	.
*	*	*Xrep	*	*	*	*	*	*	*	*	*	*	*	*	*	*	*	*	*	*
*	*	*rep	*	*	*	*	*	*	*	*	*	*	*	*	*	*	*	*	*	*
16r	.	16r	.	.	8r	.	.	.	.	.	.	.	.	.	.	.	.	.	.	.
16e-/LL	.	16b-\LL	.	.	.	.	.	.	.	.	.	.	.	.	.	.	.	.	.	.
16e-/	.	16b-\	.	.	(16e-\LL	et	.	.	.	.	.	.	.	.	.	.	.	.	.	.
16e-/JJ	.	16b-\JJ	.	.	16d\JJ)	.	.	.	.	.	.	.	.	.	.	.	.	.	.	.
*	*	*Xrep	*	*	*	*	*	*	*	*	*	*	*	*	*	*	*	*	*	*
=8	=8	=8	=8	=8	=8	=8	=8	=8	=8	=8	=8	=8	=8	=8	=8	=8	=8	=8	=8	=8
16r	.	16r	.	1ryy	8c\	ho-	1r	.	.	1r	.	.	1r	.	1r	.	1r	.	1r	.
16e-/LL	.	16cc\LL	.	.	.	.	.	.	.	.	.	.	.	.	.	.	.	.	.	.
16e-/	.	16cc\	.	.	8A-\	-mo	.	.	.	.	.	.	.	.	.	.	.	.	.	.
16e-/JJ	.	16cc\JJ	.	.	.	.	.	.	.	.	.	.	.	.	.	.	.	.	.	.
*rep	*	*	*	*	*	*	*	*	*	*	*	*	*	*	*	*	*	*	*	*
16r	.	16r	.	.	(32c\LLL	ho-	.	.	.	.	.	.	.	.	.	.	.	.	.	.
.	.	.	.	.	32d\	.	.	.	.	.	.	.	.	.	.	.	.	.	.	.
16e-/LL	.	16cc\LL	.	.	32e-\	.	.	.	.	.	.	.	.	.	.	.	.	.	.	.
.	.	.	.	.	32d\JJJ)	.	.	.	.	.	.	.	.	.	.	.	.	.	.	.
16e-/	.	16cc\	.	.	32e-\LLL	.	.	.	.	.	.	.	.	.	.	.	.	.	.	.
.	.	.	.	.	32c\JJJ	.	.	.	.	.	.	.	.	.	.	.	.	.	.	.
16e-/JJ	.	16cc\JJ	.	.	32B-\LLL	-mo	.	.	.	.	.	.	.	.	.	.	.	.	.	.
*Xrep	*	*	*	*	*	*	*	*	*	*	*	*	*	*	*	*	*	*	*	*
*rep	*	*	*	*	*	*	*	*	*	*	*	*	*	*	*	*	*	*	*	*
.	.	.	.	.	32A-\JJJ	.	.	.	.	.	.	.	.	.	.	.	.	.	.	.
16r	.	16r	.	.	16B-\	fac-	.	.	.	.	.	.	.	.	.	.	.	.	.	.
16e-/LL	.	16b-\LL	.	.	16G/	-tus	.	.	.	.	.	.	.	.	.	.	.	.	.	.
16e-/	.	16b-\	.	.	8E-/	est	.	.	.	.	.	.	.	.	.	.	.	.	.	.
16e-/JJ	.	16b-\JJ	.	.	.	.	.	.	.	.	.	.	.	.	.	.	.	.	.	.
*Xrep	*	*	*	*	*	*	*	*	*	*	*	*	*	*	*	*	*	*	*	*
*rep	*	*	*	*	*	*	*	*	*	*	*	*	*	*	*	*	*	*	*	*
16r	.	16r	.	.	8r	.	.	.	.	.	.	.	.	.	.	.	.	.	.	.
16e-/LL	.	16b-\LL	.	.	.	.	.	.	.	.	.	.	.	.	.	.	.	.	.	.
16e-/	.	16b-\	.	.	16r	.	.	.	.	.	.	.	.	.	.	.	.	.	.	.
16e-/JJ	.	16b-\JJ	.	.	16B-\	et	.	.	.	.	.	.	.	.	.	.	.	.	.	.
*Xrep	*	*	*	*	*	*	*	*	*	*	*	*	*	*	*	*	*	*	*	*
!	!	!	!	!	!LO:LB:g=original	!	!	!	!	!	!	!	!	!	!	!	!	!	!	!
=9	=9	=9	=9	=9	=9	=9	=9	=9	=9	=9	=9	=9	=9	=9	=9	=9	=9	=9	=9	=9
.	.	.	.	.	8qqB-/	.	.	.	.	.	.	.	.	.	.	.	.	.	.	.
16r	.	16r	.	1ryy	4An\	ho-	1r	.	.	1r	.	.	1r	.	1r	.	1r	.	1r	.
16c/LL	.	16an/LL	.	.	.	.	.	.	.	.	.	.	.	.	.	.	.	.	.	.
16c/	.	16a/	.	.	.	.	.	.	.	.	.	.	.	.	.	.	.	.	.	.
16c/JJ	.	16a/JJ	.	.	.	.	.	.	.	.	.	.	.	.	.	.	.	.	.	.
16r	.	16r	.	.	8g\	-mo	.	.	.	.	.	.	.	.	.	.	.	.	.	.
16an/LL	.	16gg\LL	.	.	.	.	.	.	.	.	.	.	.	.	.	.	.	.	.	.
16a/	.	16gg\	.	.	16r	.	.	.	.	.	.	.	.	.	.	.	.	.	.	.
16a/JJ	.	16gg\JJ	.	.	16g\	et	.	.	.	.	.	.	.	.	.	.	.	.	.	.
.	.	.	.	.	8qqg/	.	.	.	.	.	.	.	.	.	.	.	.	.	.	.
16r	.	16r	.	.	4f\	ho-	.	.	.	.	.	.	.	.	.	.	.	.	.	.
16b-\LL	.	16ff\LL	.	.	.	.	.	.	.	.	.	.	.	.	.	.	.	.	.	.
16b-\	.	16ff\	.	.	.	.	.	.	.	.	.	.	.	.	.	.	.	.	.	.
16b-\JJ	.	16ff\JJ	.	.	.	.	.	.	.	.	.	.	.	.	.	.	.	.	.	.
16r	.	16r	.	.	8A-X\	-mo	.	.	.	.	.	.	.	.	.	.	.	.	.	.
16a-X/LL	.	16ff\LL	.	.	.	.	.	.	.	.	.	.	.	.	.	.	.	.	.	.
16a-/	.	16ff\	.	.	16r	.	.	.	.	.	.	.	.	.	.	.	.	.	.	.
16a-/JJ	.	16ff\JJ	.	.	16A-\	et	.	.	.	.	.	.	.	.	.	.	.	.	.	.
!LO:LB:g=original	!	!LO:LB:g=original	!	!	!	!	!	!	!	!	!	!	!	!	!	!	!	!	!	!
=10	=10	=10	=10	=10	=10	=10	=10	=10	=10	=10	=10	=10	=10	=10	=10	=10	=10	=10	=10	=10
16r	.	16r	.	1ryy	4G/	ho-	1r	.	.	1r	.	.	1r	.	1r	.	1r	.	1r	.
16g/LL	.	16ee-\LL	.	.	.	.	.	.	.	.	.	.	.	.	.	.	.	.	.	.
16g/	.	16ee-\	.	.	.	.	.	.	.	.	.	.	.	.	.	.	.	.	.	.
16g/JJ	.	16ee-\JJ	.	.	.	.	.	.	.	.	.	.	.	.	.	.	.	.	.	.
*	*	*rep	*	*	*	*	*	*	*	*	*	*	*	*	*	*	*	*	*	*
16r	.	16r	.	.	8A-/	-mo	.	.	.	.	.	.	.	.	.	.	.	.	.	.
16a-/LL	.	16ee-\LL	.	.	.	.	.	.	.	.	.	.	.	.	.	.	.	.	.	.
16a-/	.	16ee-\	.	.	16r	.	.	.	.	.	.	.	.	.	.	.	.	.	.	.
16a-/JJ	.	16ee-\JJ	.	.	16A-\	et	.	.	.	.	.	.	.	.	.	.	.	.	.	.
*	*	*Xrep	*	*	*	*	*	*	*	*	*	*	*	*	*	*	*	*	*	*
*	*	*rep	*	*	*	*	*	*	*	*	*	*	*	*	*	*	*	*	*	*
16r	.	16r	.	.	(8.B-\L	ho-	.	.	.	.	.	.	.	.	.	.	.	.	.	.
16b-/LL	.	16ee-\LL	.	.	.	.	.	.	.	.	.	.	.	.	.	.	.	.	.	.
16b-/	.	16ee-\	.	.	.	.	.	.	.	.	.	.	.	.	.	.	.	.	.	.
16b-/JJ	.	16ee-\JJ	.	.	32A-\LL	.	.	.	.	.	.	.	.	.	.	.	.	.	.	.
.	.	.	.	.	32B-\JJJ)	.	.	.	.	.	.	.	.	.	.	.	.	.	.	.
*	*	*Xrep	*	*	*	*	*	*	*	*	*	*	*	*	*	*	*	*	*	*
*	*	*rep	*	*	*	*	*	*	*	*	*	*	*	*	*	*	*	*	*	*
.	.	.	.	.	16qqd-X/	.	.	.	.	.	.	.	.	.	.	.	.	.	.	.
16r	.	16r	.	.	8c\	.	.	.	.	.	.	.	.	.	.	.	.	.	.	.
16cc\LL	.	16ee-\LL	.	.	.	.	.	.	.	.	.	.	.	.	.	.	.	.	.	.
16cc\	.	16ee-\	.	.	16B-\LL	-mo	.	.	.	.	.	.	.	.	.	.	.	.	.	.
16cc\JJ	.	16ee-\JJ	.	.	16A-\JJ	.	.	.	.	.	.	.	.	.	.	.	.	.	.	.
*	*	*Xrep	*	*	*	*	*	*	*	*	*	*	*	*	*	*	*	*	*	*
=11	=11	=11	=11	=11	=11	=11	=11	=11	=11	=11	=11	=11	=11	=11	=11	=11	=11	=11	=11	=11
16r	.	16r	.	1ryy	8.G/L	fa-	1r	.	.	1r	.	.	1r	.	1r	.	1r	.	1r	.
16g/LL	.	16ee-\LL	.	.	.	.	.	.	.	.	.	.	.	.	.	.	.	.	.	.
16g/	.	16ee-\	.	.	.	.	.	.	.	.	.	.	.	.	.	.	.	.	.	.
16g/JJ	.	16ee-\JJ	.	.	32F/LL	.	.	.	.	.	.	.	.	.	.	.	.	.	.	.
.	.	.	.	.	32E-/JJJ	.	.	.	.	.	.	.	.	.	.	.	.	.	.	.
16r	.	16r	.	.	4FT/	-ctus	.	.	.	.	.	.	.	.	.	.	.	.	.	.
16f/LL	.	16dd\LL	.	.	.	.	.	.	.	.	.	.	.	.	.	.	.	.	.	.
16f/	.	16dd\	.	.	.	.	.	.	.	.	.	.	.	.	.	.	.	.	.	.
16f/JJ	.	16dd\JJ	.	.	.	.	.	.	.	.	.	.	.	.	.	.	.	.	.	.
16r	.	16r	.	.	8E-/	est	.	.	.	.	.	.	.	.	.	.	.	.	.	.
16e-/LL	.	16ee-\LL	.	.	.	.	.	.	.	.	.	.	.	.	.	.	.	.	.	.
16e-/	.	16ee-\	.	.	8r	.	.	.	.	.	.	.	.	.	.	.	.	.	.	.
16e-/JJ	.	16ee-\JJ	.	.	.	.	.	.	.	.	.	.	.	.	.	.	.	.	.	.
.	.	.	.	.	(<16qqB-/LL	.	.	.	.	.	.	.	.	.	.	.	.	.	.	.
.	.	.	.	.	16qqc/JJ	.	.	.	.	.	.	.	.	.	.	.	.	.	.	.
16r	.	16r	.	.	4d-X\)	et	.	.	.	.	.	.	.	.	.	.	.	.	.	.
16e-/LL	.	16dd-X\LL	.	.	.	.	.	.	.	.	.	.	.	.	.	.	.	.	.	.
16e-/	.	16dd-\	.	.	.	.	.	.	.	.	.	.	.	.	.	.	.	.	.	.
16e-/JJ	.	16dd-\JJ	.	.	.	.	.	.	.	.	.	.	.	.	.	.	.	.	.	.
=12	=12	=12	=12	=12	=12	=12	=12	=12	=12	=12	=12	=12	=12	=12	=12	=12	=12	=12	=12	=12
16r	.	16r	.	1ryy	(8.c\L	ho-	1r	.	.	1r	.	.	1r	.	1r	.	1r	.	1r	.
16e-/LL	.	16cc\LL	.	.	.	.	.	.	.	.	.	.	.	.	.	.	.	.	.	.
16e-/	.	16cc\	.	.	.	.	.	.	.	.	.	.	.	.	.	.	.	.	.	.
16e-/JJ	.	16cc\JJ	.	.	32dn\LL	.	.	.	.	.	.	.	.	.	.	.	.	.	.	.
.	.	.	.	.	32e-\JJJ)	.	.	.	.	.	.	.	.	.	.	.	.	.	.	.
16r	.	16r	.	.	8d\	-mo	.	.	.	.	.	.	.	.	.	.	.	.	.	.
16f/LL	.	16ddn\LL	.	.	.	.	.	.	.	.	.	.	.	.	.	.	.	.	.	.
16f/	.	16dd\	.	.	16r	.	.	.	.	.	.	.	.	.	.	.	.	.	.	.
16f/JJ	.	16dd\JJ	.	.	16d\	et	.	.	.	.	.	.	.	.	.	.	.	.	.	.
16r	.	16r	.	.	8.e-\L	ho-	.	.	.	.	.	.	.	.	.	.	.	.	.	.
16b-\LL	.	16ee-\LL	.	.	.	.	.	.	.	.	.	.	.	.	.	.	.	.	.	.
16b-\	.	16ee-\	.	.	.	.	.	.	.	.	.	.	.	.	.	.	.	.	.	.
16b-\JJ	.	16ee-\JJ	.	.	32f\LL	.	.	.	.	.	.	.	.	.	.	.	.	.	.	.
.	.	.	.	.	32g\JJJ	.	.	.	.	.	.	.	.	.	.	.	.	.	.	.
16r	.	16r	.	.	8f\	-mo	.	.	.	.	.	.	.	.	.	.	.	.	.	.
16b-\LL	.	16ff\LL	.	.	.	.	.	.	.	.	.	.	.	.	.	.	.	.	.	.
16b-\	.	16ff\	.	.	16r	.	.	.	.	.	.	.	.	.	.	.	.	.	.	.
16b-\JJ	.	16ff\JJ	.	.	16f\	et	.	.	.	.	.	.	.	.	.	.	.	.	.	.
=13	=13	=13	=13	=13	=13	=13	=13	=13	=13	=13	=13	=13	=13	=13	=13	=13	=13	=13	=13	=13
16r	.	16r	.	1ryy	16g\LL	ho-	1r	.	.	1r	.	.	1r	.	1r	.	1r	.	1r	.
(16g/LL	.	(16ee-\LL	.	.	16e-\	.	.	.	.	.	.	.	.	.	.	.	.	.	.	.
16f/	.	16dd\	.	.	16d\	.	.	.	.	.	.	.	.	.	.	.	.	.	.	.
16g/JJ)	.	16ee-\JJ)	.	.	16e-\JJ	.	.	.	.	.	.	.	.	.	.	.	.	.	.	.
16r	.	16r	.	.	32d\LLL	.	.	.	.	.	.	.	.	.	.	.	.	.	.	.
.	.	.	.	.	32c\JJJ	.	.	.	.	.	.	.	.	.	.	.	.	.	.	.
(16a-/LL	.	(16cc\LL	.	.	32B-\LLL	-mo	.	.	.	.	.	.	.	.	.	.	.	.	.	.
.	.	.	.	.	32A-\JJJ	.	.	.	.	.	.	.	.	.	.	.	.	.	.	.
!	!	!	!	!	!LO:LB:g=original	!	!	!	!	!	!	!	!	!	!	!	!	!	!	!
16g/	.	16b-\	.	.	16G/LL	fa-	.	.	.	.	.	.	.	.	.	.	.	.	.	.
16f/JJ)	.	16a-\JJ)	.	.	32A-/L	.	.	.	.	.	.	.	.	.	.	.	.	.	.	.
.	.	.	.	.	32B-/JJJ	.	.	.	.	.	.	.	.	.	.	.	.	.	.	.
!	!	!LO:TX:t=P:problem=mixed beam	!	!	!	!	!	!	!	!	!	!	!	!	!	!	!	!	!	!
(16e-/LL	.	16g/LL	.	.	16A-/LL	.	.	.	.	.	.	.	.	.	.	.	.	.	.	.
16g/)	.	16ee-'\	.	.	16G/	.	.	.	.	.	.	.	.	.	.	.	.	.	.	.
16g'/	.	16ee-'\	.	.	16F/	.	.	.	.	.	.	.	.	.	.	.	.	.	.	.
16g'/JJ	.	16ee-\JJ	.	.	16E-/JJ	.	.	.	.	.	.	.	.	.	.	.	.	.	.	.
!	!	!LO:TX:t=P:problem=mixed beam	!	!	!	!	!	!	!	!	!	!	!	!	!	!	!	!	!	!
(16d/LL	.	16f/LL	.	.	4FT/	-ctus	.	.	.	.	.	.	.	.	.	.	.	.	.	.
16f/)	.	16dd'\	.	.	.	.	.	.	.	.	.	.	.	.	.	.	.	.	.	.
16f'/	.	16dd'\	.	.	.	.	.	.	.	.	.	.	.	.	.	.	.	.	.	.
16f'/JJ	.	16dd'\JJ	.	.	.	.	.	.	.	.	.	.	.	.	.	.	.	.	.	.
=14	=14	=14	=14	=14	=14	=14	=14	=14	=14	=14	=14	=14	=14	=14	=14	=14	=14	=14	=14	=14
!	!	!	!	!	!	!	!	!	!	!	!	!	!	!	!	!	!LO:TX:a:i:t=Dolce	!	!LO:TX:a:i:t=Dolc	!
4g/	.	4ee-\	.	1ryy	4E-/	est	1r	.	.	1r	.	.	4e-/	p	4e-/	p	16r	.	16r	.
.	.	.	.	.	.	.	.	.	.	.	.	.	.	.	.	.	(16ee-\LL	.	(16gg\LL	.
.	.	.	.	.	.	.	.	.	.	.	.	.	.	.	.	.	16ff\	.	16aa-\	.
.	.	.	.	.	.	.	.	.	.	.	.	.	.	.	.	.	16gg\JJ)	.	16bb-\JJ)	.
4r	.	4r	.	.	4r	.	.	.	.	.	.	.	4r	.	4r	.	(16ff\LL	.	(16aa-\LL	.
.	.	.	.	.	.	.	.	.	.	.	.	.	.	.	.	.	16ee-\)	.	16gg\)	.
.	.	.	.	.	.	.	.	.	.	.	.	.	.	.	.	.	(16aa-\	.	(16ccc\	.
.	.	.	.	.	.	.	.	.	.	.	.	.	.	.	.	.	16gg\JJ)	.	16bb-\JJ)	.
!	!LO:DY:b	!	!	!	!	!	!	!	!	!	!	!	!	!	!	!	!	!	!	!
16r	f	16r	.	.	2r	.	.	.	.	.	.	.	4B-/	.	4b-/	.	(16gg\LL	.	(16bb-\LL	.
(16d/LL	.	(16f/LL	.	.	.	.	.	.	.	.	.	.	.	.	.	.	16ff\JJ)	.	16aa-\JJ)	.
16e-/	.	16g/	.	.	.	.	.	.	.	.	.	.	.	.	.	.	4.ff\	.	4.aa-'\	.
16f/JJ)	.	16a-/JJ)	.	.	.	.	.	.	.	.	.	.	.	.	.	.	.	.	.	.
(16e-/LL	.	(16g/LL	.	.	.	.	.	.	.	.	.	.	4r	.	4r	.	.	.	.	.
16d/)	.	16f/	.	.	.	.	.	.	.	.	.	.	.	.	.	.	.	.	.	.
(16d/	.	16b-/	.	.	.	.	.	.	.	.	.	.	.	.	.	.	.	.	.	.
16f/JJ)	.	16a-/JJ)	.	.	.	.	.	.	.	.	.	.	.	.	.	.	.	.	.	.
!LO:LB:g=original	!	!LO:LB:g=original	!	!	!	!	!	!	!	!	!	!	!	!	!	!	!	!	!	!
=15	=15	=15	=15	=15	=15	=15	=15	=15	=15	=15	=15	=15	=15	=15	=15	=15	=15	=15	=15	=15
!	!	!	!	!	!LO:TX:a:t=14	!	!	!	!	!	!	!	!	!	!	!	!	!	!	!
(16f/LL	.	16a-/LL	.	1ryy	1r	.	1r	.	.	1r	.	.	8e-/L	.	8ee-\L	.	16r	.	16r	.
16e-/J)	.	16g/J	.	.	.	.	.	.	.	.	.	.	.	.	.	.	16ee-'\LL	.	16gg'\LL	.
8e-/J	.	8g/J	.	.	.	.	.	.	.	.	.	.	8e-/J	.	8ee-\J	.	(16ee-\	.	(16gg\	.
.	.	.	.	.	.	.	.	.	.	.	.	.	.	.	.	.	16dd\JJ)	.	16ff\JJ)	.
4r	.	4r	.	.	.	.	.	.	.	.	.	.	4r	.	4r	.	16cc'\LL	.	16ee-'\LL	.
.	.	.	.	.	.	.	.	.	.	.	.	.	.	.	.	.	16cc'\	.	16ee-'\	.
.	.	.	.	.	.	.	.	.	.	.	.	.	.	.	.	.	(16cc\	.	(16ee-\	.
.	.	.	.	.	.	.	.	.	.	.	.	.	.	.	.	.	16b-\JJ)	.	16dd\JJ)	.
16r	.	16r	.	.	.	.	.	.	.	.	.	.	2r	.	2r	.	(16b-\LL	.	(16dd\LL	.
16cc'\LL	.	16aa-'\LL	.	.	.	.	.	.	.	.	.	.	.	.	.	.	16a-\)	.	16cc\)	.
(16cc\	.	(16aa-\	.	.	.	.	.	.	.	.	.	.	.	.	.	.	16a-'\	.	16cc'\	.
16b-\JJ)	.	16gg\JJ)	.	.	.	.	.	.	.	.	.	.	.	.	.	.	16a-'\JJ	.	16cc'\JJ	.
16a-'/LL	.	16ff'\LL	.	.	.	.	.	.	.	.	.	.	.	.	.	.	4a-\	.	4cc\	.
16a-'/	.	16ff'\	.	.	.	.	.	.	.	.	.	.	.	.	.	.	.	.	.	.
(16a-/	.	(16ff\	.	.	.	.	.	.	.	.	.	.	.	.	.	.	.	.	.	.
16g/JJ)	.	16ee-\JJ)	.	.	.	.	.	.	.	.	.	.	.	.	.	.	.	.	.	.
=16	=16	=16	=16	=16	=16	=16	=16	=16	=16	=16	=16	=16	=16	=16	=16	=16	=16	=16	=16	=16
!	!	!LO:N:vis=16	!	!	!	!	!	!	!	!	!	!	!	!	!	!	!	!	!	!
!	!	!	!LO:DY:b:t=for	!	!	!	!	!	!	!	!	!	!	!	!	!	!	!	!	!
8f/	.	(32dd\LLL	f	1ryy	1r	.	1r	.	.	1r	.	.	8b-/	.	8b-/	.	8f/	.	8dd\	.
!	!	!LO:N:vis=16	!	!	!	!	!	!	!	!	!	!	!	!	!	!	!	!	!	!
.	.	32cc\	.	.	.	.	.	.	.	.	.	.	.	.	.	.	.	.	.	.
!	!	!LO:N:vis=16	!	!	!	!	!	!	!	!	!	!	!	!	!	!	!	!	!	!
.	.	32b-\	.	.	.	.	.	.	.	.	.	.	.	.	.	.	.	.	.	.
!	!	!LO:N:vis=16	!	!	!	!	!	!	!	!	!	!	!	!	!	!	!	!	!	!
.	.	32cc\JJJ)	.	.	.	.	.	.	.	.	.	.	.	.	.	.	.	.	.	.
!	!	!LO:N:vis=16	!	!	!	!	!	!	!	!	!	!	!	!	!	!	!	!	!	!
(32b-\LLL	.	32dd\LLL	.	.	.	.	.	.	.	.	.	.	8r	.	8r	.	8r	.	8r	.
!	!	!LO:N:vis=16	!	!	!	!	!	!	!	!	!	!	!	!	!	!	!	!	!	!
32an\	.	32cc\	.	.	.	.	.	.	.	.	.	.	.	.	.	.	.	.	.	.
!	!	!LO:N:vis=16	!	!	!	!	!	!	!	!	!	!	!	!	!	!	!	!	!	!
32b-\	.	32dd\	.	.	.	.	.	.	.	.	.	.	.	.	.	.	.	.	.	.
!LO:TX:t=P:problem=następuje skreślona grupa czterech 32	!	!LO:N:vis=16	!	!	!	!	!	!	!	!	!	!	!	!	!	!	!	!	!	!
32cc\JJJ)	.	32ee-\JJJ	.	.	.	.	.	.	.	.	.	.	.	.	.	.	.	.	.	.
!	!	!LO:N:vis=16	!	!	!	!	!	!	!	!	!	!	!	!	!	!	!	!	!	!
(32dd\LLL	.	32ff\LLL	.	.	.	.	.	.	.	.	.	.	8b-/	.	8b-/	.	8dd\	.	8ff\	.
!	!	!LO:N:vis=16	!	!	!	!	!	!	!	!	!	!	!	!	!	!	!	!	!	!
32cc\	.	32ee-\	.	.	.	.	.	.	.	.	.	.	.	.	.	.	.	.	.	.
!	!	!LO:N:vis=16	!	!	!	!	!	!	!	!	!	!	!	!	!	!	!	!	!	!
32b-\	.	32dd\	.	.	.	.	.	.	.	.	.	.	.	.	.	.	.	.	.	.
!	!	!LO:N:vis=16	!	!	!	!	!	!	!	!	!	!	!	!	!	!	!	!	!	!
32cc\JJJ)	.	32ee-\JJJ	.	.	.	.	.	.	.	.	.	.	.	.	.	.	.	.	.	.
!	!	!LO:N:vis=16	!	!	!	!	!	!	!	!	!	!	!	!	!	!	!	!	!	!
(32dd\LLL	.	32ff\LLL	.	.	.	.	.	.	.	.	.	.	8r	.	8r	.	4r	.	4r	.
!	!	!LO:N:vis=16	!	!	!	!	!	!	!	!	!	!	!	!	!	!	!	!	!	!
32cc\	.	32ee-\	.	.	.	.	.	.	.	.	.	.	.	.	.	.	.	.	.	.
!	!	!LO:N:vis=16	!	!	!	!	!	!	!	!	!	!	!	!	!	!	!	!	!	!
32dd\	.	32ff\	.	.	.	.	.	.	.	.	.	.	.	.	.	.	.	.	.	.
!	!	!LO:N:vis=16	!	!	!	!	!	!	!	!	!	!	!	!	!	!	!	!	!	!
32ee-\JJJ)	.	32gg\JJJ	.	.	.	.	.	.	.	.	.	.	.	.	.	.	.	.	.	.
8ff\L	.	8aa-\L	.	.	.	.	.	.	.	.	.	.	4B-/	.	4b-/	.	.	.	.	.
8qqeen/	.	16qqgg/	.	.	.	.	.	.	.	.	.	.	.	.	.	.	.	.	.	.
8ff\	.	8aa-\	.	.	.	.	.	.	.	.	.	.	.	.	.	.	[4ff\	.	[4aa-\	.
8qqee/	.	16qqgg/	.	.	.	.	.	.	.	.	.	.	.	.	.	.	.	.	.	.
8ff\J	.	8aa-\J	.	.	.	.	.	.	.	.	.	.	4r	.	4r	.	.	.	.	.
16r	.	16r	.	.	.	.	.	.	.	.	.	.	.	.	.	.	8ff\]	.	8aa-\]	.
16dd\	.	16ff\	.	.	.	.	.	.	.	.	.	.	.	.	.	.	.	.	.	.
=17	=17	=17	=17	=17	=17	=17	=17	=17	=17	=17	=17	=17	=17	=17	=17	=17	=17	=17	=17	=17
8ee-\	.	16gg'\LL	.	1ryy	1r	.	1r	.	.	1r	.	.	4r	.	4r	.	8ee-\L	.	8gg\	.
.	.	(32dd\L	.	.	.	.	.	.	.	.	.	.	.	.	.	.	.	.	.	.
.	.	32ee-\JJJ)	.	.	.	.	.	.	.	.	.	.	.	.	.	.	.	.	.	.
!	!	!LO:N:vis=16	!	!	!	!	!	!	!	!	!	!	!	!	!	!	!	!	!	!
(32b-/LLL	.	(32dd\LLL	.	.	.	.	.	.	.	.	.	.	.	.	.	.	8cc\J	.	4ee-\	.
!	!	!LO:N:vis=16	!	!	!	!	!	!	!	!	!	!	!	!	!	!	!	!	!	!
32a-/	.	32cc\	.	.	.	.	.	.	.	.	.	.	.	.	.	.	.	.	.	.
!	!	!LO:N:vis=16	!	!	!	!	!	!	!	!	!	!	!	!	!	!	!	!	!	!
32g/	.	32b-\	.	.	.	.	.	.	.	.	.	.	.	.	.	.	.	.	.	.
!	!	!LO:N:vis=16	!	!	!	!	!	!	!	!	!	!	!	!	!	!	!	!	!	!
32f/JJJ)	.	32a-\JJJ)	.	.	.	.	.	.	.	.	.	.	.	.	.	.	.	.	.	.
8e-/L	.	8g/L	.	.	.	.	.	.	.	.	.	.	8ee-\L	.	8gg\L	.	8g/L	.	.	.
8d/J	.	8fT/J	.	.	.	.	.	.	.	.	.	.	8b-\J	.	8ff\J	.	8f/J	.	8dd\	.
8e-/L	.	8e-/L	.	.	.	.	.	.	.	.	.	.	4g/	.	4ee-\	.	4g/	.	4ee-\	.
8B-/	.	8B-/	.	.	.	.	.	.	.	.	.	.	.	.	.	.	.	.	.	.
8e-/J	.	8e-/J	.	.	.	.	.	.	.	.	.	.	4r	.	4r	.	4r	.	4r	.
8r	.	8r	.	.	.	.	.	.	.	.	.	.	.	.	.	.	.	.	.	.
!	!	!	!	!	!	!	!	!	!	!	!	!	!	!	!	!	!LO:LB:g=original	!	!LO:LB:g=original	!
=18	=18	=18	=18	=18	=18	=18	=18	=18	=18	=18	=18	=18	=18	=18	=18	=18	=18	=18	=18	=18
!	!	!	!	!	!	!	!LO:TX:a:i:t=Solo	!	!	!LO:TX:a:i:t=Solo	!	!	!LO:TX:a:t=8	!	!LO:TX:a:t=8	!	!	!	!	!
!	!	!	!	!	!	!	!	!	!	!	!	!	!	!	!	!	!	!	!	!LO:DY:b:t=pia
!	!	!	!LO:DY:b:t=p&colon;	!	!	!	!	!	!	!	!	!	!	!	!	!	!	!	!	!
!	!LO:DY:b	!	!	!	!	!	!	!	!	!	!	!	!	!	!	!	!	!	!	!
16r	p	16r	p	1ryy	1r	.	8r	.	.	8r	.	.	1r	.	1r	.	(4gg\	p	(4bb-\	p
16b-'\LL	.	16gg\LL	.	.	.	.	.	.	.	.	.	.	.	.	.	.	.	.	.	.
16b-'\	.	16gg\	.	.	.	.	8b-\L	Cru-	.	8gg\L	Cru-	.	.	.	.	.	.	.	.	.
16b-'\JJ	.	16gg\JJ	.	.	.	.	.	.	.	.	.	.	.	.	.	.	.	.	.	.
16r	.	16r	.	.	.	.	8a-\J	.	.	8ff\J	.	.	.	.	.	.	8ff\L)	.	8aa-\L)	.
16a-'/	.	16ff\	.	.	.	.	.	.	.	.	.	.	.	.	.	.	.	.	.	.
16r	.	16r	.	.	.	.	8g\	-ci-	.	8ee-\	-ci-	.	.	.	.	.	8ee-\J	.	8gg\J	.
16g'/	.	16ee-\	.	.	.	.	.	.	.	.	.	.	.	.	.	.	.	.	.	.
16r	.	16r	.	.	.	.	(8.f\L	-fi-	.	(8.dd\L	-fi-	.	.	.	.	.	(8.dd\L	.	(8.ff\L	.
16f/LL	.	16dd'\LL	.	.	.	.	.	.	.	.	.	.	.	.	.	.	.	.	.	.
16f/	.	16dd'\	.	.	.	.	.	.	.	.	.	.	.	.	.	.	.	.	.	.
16f/JJ	.	16dd'\JJ	.	.	.	.	32g\LL	.	.	32ee-\LL	.	.	.	.	.	.	32ee-\LL	.	32gg\LL	.
.	.	.	.	.	.	.	32a-\JJJ)	.	.	32ff\JJJ)	.	.	.	.	.	.	32ff\JJJ)	.	32aa-\JJJ)	.
.	.	.	.	.	.	.	.	.	.	.	.	.	.	.	.	.	16qqff/	.	8qqaa-/	.
16r	.	16r	.	.	.	.	4g\	-xus	.	4ee-\	-xus	.	.	.	.	.	4ee-\	.	4gg\	.
16g/LL	.	16ee-'\LL	.	.	.	.	.	.	.	.	.	.	.	.	.	.	.	.	.	.
16g/	.	16ee-'\	.	.	.	.	.	.	.	.	.	.	.	.	.	.	.	.	.	.
16g/JJ	.	16ee-'\JJ	.	.	.	.	.	.	.	.	.	.	.	.	.	.	.	.	.	.
!LO:LB:g=original	!	!	!	!	!	!	!	!	!	!	!	!	!	!	!	!	!	!	!	!
=19	=19	=19	=19	=19	=19	=19	=19	=19	=19	=19	=19	=19	=19	=19	=19	=19	=19	=19	=19	=19
16r	.	16r	.	1ryy	1r	.	8.a-\	e-	.	8.cc\	et-	.	1r	.	1r	.	4cc\	.	4aa-\	.
16a-'/LL	.	16cc'\LL	.	.	.	.	.	.	.	.	.	.	.	.	.	.	.	.	.	.
16a-'/	.	16cc'\	.	.	.	.	.	.	.	.	.	.	.	.	.	.	.	.	.	.
16a-'/JJ	.	16cc'\JJ	.	.	.	.	16a-\	-ti-	.	16cc\	-i-	.	.	.	.	.	.	.	.	.
!	!	!	!	!	!	!	!	!	!	!LO:SIC:v:l:s=-am	!	!	!	!	!	!	!	!	!	!
(16g/LL	.	(16b-/LL	.	.	.	.	16g\LL	-am	.	16b-\LL	-a	.	.	.	.	.	8r	.	8r	.
16f/	.	16a-/	.	.	.	.	16f\JJ	.	.	16a-\JJ	.	.	.	.	.	.	.	.	.	.
16e-/	.	16g/	.	.	.	.	16e-\LL	pro-	.	16g\LL	pro-	.	.	.	.	.	8dd\	.	8ff\	.
16d/JJ)	.	16f/JJ)	.	.	.	.	16d\JJ	.	.	16f\JJ	.	.	.	.	.	.	.	.	.	.
.	.	.	.	.	.	.	.	.	.	16qqa-/	.	.	.	.	.	.	.	.	.	.
8e-'/L	.	8g/L	.	.	.	.	8e-\	-no-	.	16g/LL	-no-	.	.	.	.	.	8ee-'\L	.	8gg\L	.
.	.	.	.	.	.	.	.	.	.	32f/L	.	.	.	.	.	.	.	.	.	.
.	.	.	.	.	.	.	.	.	.	32e-/JJJ	.	.	.	.	.	.	.	.	.	.
(16e-/L	.	16g/L	.	.	.	.	8e-\	-bis	.	8e-/	-bis	.	.	.	.	.	(16ee-\L	.	16gg\L	.
16d/JJ)	.	16f/JJ	.	.	.	.	.	.	.	.	.	.	.	.	.	.	16dd\JJ)	.	16ff\JJ	.
(16e-/LL	.	(16g/LL	.	.	.	.	4r	.	.	4r	.	.	.	.	.	.	16ee-\LL	.	(16gg\LL	.
16f/)	.	16a-/	.	.	.	.	.	.	.	.	.	.	.	.	.	.	16ff\	.	16aa-\	.
(16g/	.	16b-/	.	.	.	.	.	.	.	.	.	.	.	.	.	.	16gg\	.	16bb-\	.
16f/JJ)	.	16a-/JJ)	.	.	.	.	.	.	.	.	.	.	.	.	.	.	16ff\JJ	.	16aa-\JJ)	.
!	!	!LO:LB:g=original	!	!	!	!	!	!	!	!	!	!	!	!	!	!	!	!	!	!
=20	=20	=20	=20	=20	=20	=20	=20	=20	=20	=20	=20	=20	=20	=20	=20	=20	=20	=20	=20	=20
(16e-/LL	.	16g/LL	.	1ryy	1r	.	2r	.	.	8.ee-\	cru-	.	1r	.	1r	.	4ee-\	.	4gg\	.
16g/)	.	16b-'/	.	.	.	.	.	.	.	.	.	.	.	.	.	.	.	.	.	.
16g'/	.	16b-'/	.	.	.	.	.	.	.	.	.	.	.	.	.	.	.	.	.	.
16g'/JJ	.	16b-'/JJ	.	.	.	.	.	.	.	16ee-\	-ci-	.	.	.	.	.	.	.	.	.
16r	.	16r	.	.	.	.	.	.	.	16ee-\LL	-fi-	.	.	.	.	.	4r	.	4r	.
16g'/LL	.	16b-\LL	.	.	.	.	.	.	.	16ff\JJ	.	.	.	.	.	.	.	.	.	.
16g'/	.	16b-\	.	.	.	.	.	.	.	16gg\LL	-xus	.	.	.	.	.	.	.	.	.
16g'/JJ	.	16b-\JJ	.	.	.	.	.	.	.	16ee-\JJ	.	.	.	.	.	.	.	.	.	.
16r	.	16r	.	.	.	.	8.a-\	cru-	.	16cc\	e-	.	.	.	.	.	2r	.	2r	.
16e-/LL	.	16cc\LL	.	.	.	.	.	.	.	16cc\	-ti-	.	.	.	.	.	.	.	.	.
16e-/	.	16cc\	.	.	.	.	.	.	.	8cc\	-am	.	.	.	.	.	.	.	.	.
16e-/JJ	.	16cc\JJ	.	.	.	.	16b-\	-ci-	.	.	.	.	.	.	.	.	.	.	.	.
16r	.	16r	.	.	.	.	16cc\LL	-fi-	.	4r	.	.	.	.	.	.	.	.	.	.
16f/LL	.	16cc\LL	.	.	.	.	16b-\JJ	.	.	.	.	.	.	.	.	.	.	.	.	.
16f/	.	16cc\	.	.	.	.	16f\LL	-xus	.	.	.	.	.	.	.	.	.	.	.	.
16f/JJ	.	16cc\JJ	.	.	.	.	16e-\JJ	.	.	.	.	.	.	.	.	.	.	.	.	.
=21	=21	=21	=21	=21	=21	=21	=21	=21	=21	=21	=21	=21	=21	=21	=21	=21	=21	=21	=21	=21
16r	.	16r	.	1ryy	1r	.	16d\	e-	.	8.ff\	e-	.	1r	.	1r	.	2r	.	2r	.
16f/LL	.	16dd\LL	.	.	.	.	16d\	-ti-	.	.	.	.	.	.	.	.	.	.	.	.
16f/	.	16dd\	.	.	.	.	8d\	-am	.	.	.	.	.	.	.	.	.	.	.	.
16f/JJ	.	16dd\JJ	.	.	.	.	.	.	.	32dd\LLL	-ti-	.	.	.	.	.	.	.	.	.
.	.	.	.	.	.	.	.	.	.	32ee-\JJJ	.	.	.	.	.	.	.	.	.	.
16r	.	16r	.	.	.	.	8r	.	.	16ff\LL	-am	.	.	.	.	.	.	.	.	.
16f/LL	.	16dd\LL	.	.	.	.	.	.	.	16dd\JJ	.	.	.	.	.	.	.	.	.	.
16f/	.	16dd\	.	.	.	.	8f\	pro-	.	16b-\LL	pro-	.	.	.	.	.	.	.	.	.
16f/JJ	.	16dd\JJ	.	.	.	.	.	.	.	16a-\JJ	.	.	.	.	.	.	.	.	.	.
!	!	!	!	!	!	!	!LO:LB:g=original	!	!	!	!	!	!	!	!	!	!	!	!	!
16r	.	16r	.	.	.	.	16f\LL	-no-	.	16a-\LL	-no-	.	.	.	.	.	4r	.	4r	.
16g/LL	.	16ee-\LL	.	.	.	.	16e-\JJ	.	.	16g\JJ	.	.	.	.	.	.	.	.	.	.
16g/	.	16ee-\	.	.	.	.	8e-\	-bis	.	8g\	-bis	.	.	.	.	.	.	.	.	.
16g/JJ	.	16ee-\JJ	.	.	.	.	.	.	.	.	.	.	.	.	.	.	.	.	.	.
16r	.	16r	.	.	.	.	8r	.	.	8r	.	.	.	.	.	.	8r	.	8r	.
16ee-'\LL	.	16gg\LL	.	.	.	.	.	.	.	.	.	.	.	.	.	.	.	.	.	.
16ee-'\	.	16gg\	.	.	.	.	8ee-\	sub	.	8gg\	sub	.	.	.	.	.	8ee-\	.	8gg\	.
16ee-'\JJ	.	16gg\JJ	.	.	.	.	.	.	.	.	.	.	.	.	.	.	.	.	.	.
!	!	!	!	!	!	!	!	!	!	!LO:LB:g=original	!	!	!	!	!	!	!	!	!	!
=22	=22	=22	=22	=22	=22	=22	=22	=22	=22	=22	=22	=22	=22	=22	=22	=22	=22	=22	=22	=22
.	.	.	.	.	.	.	16qqee-/	.	.	16qqgg/	.	.	.	.	.	.	.	.	.	.
16dd'\LL	.	16ff'\LL	.	1ryy	1r	.	8.dd\	Pon-	.	8.ff\	Pon-	.	1r	.	1r	.	4dd\	.	4ff\	.
16bb-'\	.	16ddd'\	.	.	.	.	.	.	.	.	.	.	.	.	.	.	.	.	.	.
16ff'\	.	16bb-'\	.	.	.	.	.	.	.	.	.	.	.	.	.	.	.	.	.	.
16dd'\JJ	.	16ff'\JJ	.	.	.	.	16b-\	-ti-	.	16dd\	-ti-	.	.	.	.	.	.	.	.	.
.	.	.	.	.	.	.	16qqdd/	.	.	16qqff/	.	.	.	.	.	.	.	.	.	.
16cc'\LL	.	16ee-'\LL	.	.	.	.	8.cc\	-o	.	8.ee-\	-o	.	.	.	.	.	4cc\	.	4ee-\	.
16aan'\	.	16ccc'\	.	.	.	.	.	.	.	.	.	.	.	.	.	.	.	.	.	.
16ee-'\	.	16aan'\	.	.	.	.	.	.	.	.	.	.	.	.	.	.	.	.	.	.
16cc'\JJ	.	16ee-'\JJ	.	.	.	.	16an\	Pi-	.	16cc\	pi-	.	.	.	.	.	.	.	.	.
!	!	!	!	!	!	!	!LO:N:vis=16	!	!	!	!	!	!	!	!	!	!	!	!	!
(32b-\LLL	.	(32dd\LLL	.	.	.	.	(32b-\LLL	-la-	.	(32dd\LLL	-la-	.	.	.	.	.	(32b-\LLL	.	(32dd\LLL	.
!	!	!	!	!	!	!	!LO:N:vis=16	!	!	!	!	!	!	!	!	!	!	!	!	!
32cc\	.	32ee-\	.	.	.	.	32cc\	.	.	32ee-\	.	.	.	.	.	.	32cc\	.	32ee-\	.
!	!	!	!	!	!	!	!LO:N:vis=16	!	!	!	!	!	!	!	!	!	!	!	!	!
32dd\	.	32ff\	.	.	.	.	32dd\	.	.	32ff\	.	.	.	.	.	.	32dd\	.	32ff\	.
!	!	!	!	!	!	!	!LO:N:vis=16	!	!	!	!	!	!	!	!	!	!	!	!	!
32ee-\JJ	.	32gg\JJ)	.	.	.	.	32ee-\JJJ)	.	.	32gg\JJJ)	.	.	.	.	.	.	32ee-\JJ)	.	32gg\JJ)	.
8dd\J)	.	8ff'\J	.	.	.	.	8dd\	-to	.	8ff\	-to	.	.	.	.	.	8dd\J	.	8ff\J	.
16r	.	16r	.	.	.	.	8r	.	.	8r	.	.	.	.	.	.	8r	.	8r	.
(16ee-\LL	.	16gg'\LL	.	.	.	.	.	.	.	.	.	.	.	.	.	.	.	.	.	.
16gg\	.	(16bb-\	.	.	.	.	8ee-\	sub	.	8gg\	sub	.	.	.	.	.	8ee-\	.	8gg\	.
16ee-\JJ)	.	16gg\JJ)	.	.	.	.	.	.	.	.	.	.	.	.	.	.	.	.	.	.
=23	=23	=23	=23	=23	=23	=23	=23	=23	=23	=23	=23	=23	=23	=23	=23	=23	=23	=23	=23	=23
.	.	.	.	.	.	.	16qqee-/	.	.	16qqgg/	.	.	.	.	.	.	.	.	.	.
16dd'\LL	.	16ff'\LL	.	1ryy	1r	.	8.dd\	pon-	.	8.ff\	pon-	.	1r	.	1r	.	4dd\	.	4ff\	.
16bb-'\	.	16ddd'\	.	.	.	.	.	.	.	.	.	.	.	.	.	.	.	.	.	.
16ff'\	.	16bb-'\	.	.	.	.	.	.	.	.	.	.	.	.	.	.	.	.	.	.
16dd'\JJ	.	16ff'\JJ	.	.	.	.	16b-\	-ti-	.	16dd\	-ti-	.	.	.	.	.	.	.	.	.
.	.	.	.	.	.	.	16qqdd/	.	.	16qqff/	.	.	.	.	.	.	.	.	.	.
16cc'\LL	.	16ee-'\LL	.	.	.	.	8.cc\	-o	.	8.ee-\	-o	.	.	.	.	.	4cc\	.	4ee-\	.
16aan'\	.	16ccc'\	.	.	.	.	.	.	.	.	.	.	.	.	.	.	.	.	.	.
16ee-'\	.	16aan'\	.	.	.	.	.	.	.	.	.	.	.	.	.	.	.	.	.	.
16cc'\JJ	.	16ee-'\JJ	.	.	.	.	16an\	pi-	.	16cc\	pi-	.	.	.	.	.	.	.	.	.
.	.	8qqee-/	.	.	.	.	.	.	.	16qqee-/	.	.	.	.	.	.	.	.	.	.
8b-'>/L	.	16dd\LL	.	.	.	.	8b-\	-la-	.	16dd\LL	-la-	.	.	.	.	.	4b-\	.	4dd\	.
.	.	32cc\L	.	.	.	.	.	.	.	32cc\L	.	.	.	.	.	.	.	.	.	.
.	.	32b-\JJJ	.	.	.	.	.	.	.	32b-\JJJ	.	.	.	.	.	.	.	.	.	.
8d'/J	.	8b-\	.	.	.	.	8b-\	-to	.	8b-\	-to	.	.	.	.	.	.	.	.	.
4r	.	4r	.	.	.	.	8b-\	paſ-	.	8b-\	paſ-	.	.	.	.	.	4r	.	4r	.
.	.	.	.	.	.	.	8b-\	-sus	.	8b-\	-sus	.	.	.	.	.	.	.	.	.
!LO:LB:g=original	!	!	!	!	!	!	!	!	!	!	!	!	!	!	!	!	!	!	!	!
=24	=24	=24	=24	=24	=24	=24	=24	=24	=24	=24	=24	=24	=24	=24	=24	=24	=24	=24	=24	=24
*	*	*	*	*	*	*	*	*ij	*	*	*ij	*	*	*	*	*	*	*	*	*
!LO:TX:a:i:t=stacato	!	!LO:TX:b:i:t=stacato	!	!	!	!	!	!	!	!	!	!	!	!	!	!	!LO:TX:a:t=2	!	!LO:TX:a:t=2	!
32b-'\LLL	.	32b-'\LLL	.	1ryy	1r	.	4b-\	paſ-	.	4b-\	sub	.	1r	.	1r	.	1r	.	1r	.
32b-'\	.	32b-'\	.	.	.	.	.	.	.	.	.	.	.	.	.	.	.	.	.	.
32b-'\	.	32dd'\	.	.	.	.	.	.	.	.	.	.	.	.	.	.	.	.	.	.
32b-'\JJJ	.	32b-'\JJJ	.	.	.	.	.	.	.	.	.	.	.	.	.	.	.	.	.	.
32b-'\LLL	.	32b-\LLL	.	.	.	.	.	.	.	.	.	.	.	.	.	.	.	.	.	.
32b-'\	.	32b-\	.	.	.	.	.	.	.	.	.	.	.	.	.	.	.	.	.	.
32b-'\	.	32dd\	.	.	.	.	.	.	.	.	.	.	.	.	.	.	.	.	.	.
32b-'\JJJ	.	32b-\JJJ	.	.	.	.	.	.	.	.	.	.	.	.	.	.	.	.	.	.
32an'\LLL	.	32cc\LLL	.	.	.	.	4an\	-sus	.	4cc\	pon-	.	.	.	.	.	.	.	.	.
32a'\	.	32cc\	.	.	.	.	.	.	.	.	.	.	.	.	.	.	.	.	.	.
32cc'\	.	32ee-\	.	.	.	.	.	.	.	.	.	.	.	.	.	.	.	.	.	.
32a'\JJJ	.	32cc\JJJ	.	.	.	.	.	.	.	.	.	.	.	.	.	.	.	.	.	.
*rep	*	*	*	*	*	*	*	*	*	*	*	*	*	*	*	*	*	*	*	*
32a'\LLL	.	32cc\LLL	.	.	.	.	.	.	.	.	.	.	.	.	.	.	.	.	.	.
32a'\	.	32cc\	.	.	.	.	.	.	.	.	.	.	.	.	.	.	.	.	.	.
32cc'\	.	32ee-\	.	.	.	.	.	.	.	.	.	.	.	.	.	.	.	.	.	.
32a'\JJJ	.	32cc\JJJ	.	.	.	.	.	.	.	.	.	.	.	.	.	.	.	.	.	.
*Xrep	*	*	*	*	*	*	*	*	*	*	*	*	*	*	*	*	*	*	*	*
!	!	!LO:LB:g=original	!	!	!	!	!	!	!	!	!	!	!	!	!	!	!	!	!	!
32b-'/LLL	.	32dd\LLL	.	.	.	.	4a-X\	paſ-	.	(8.dd\L	-ti-	.	.	.	.	.	.	.	.	.
32f'/	.	32dd\	.	.	.	.	.	.	.	.	.	.	.	.	.	.	.	.	.	.
32g'/	.	32ff\	.	.	.	.	.	.	.	.	.	.	.	.	.	.	.	.	.	.
32f'/JJJ	.	32dd\JJJ	.	.	.	.	.	.	.	.	.	.	.	.	.	.	.	.	.	.
32b-'/LLL	.	32dd\LLL	.	.	.	.	.	.	.	.	.	.	.	.	.	.	.	.	.	.
32f'/	.	32dd\	.	.	.	.	.	.	.	.	.	.	.	.	.	.	.	.	.	.
32a'/	.	32ff\	.	.	.	.	.	.	.	32ee-\LL	-o	.	.	.	.	.	.	.	.	.
32f'/JJJ	.	32dd\JJJ	.	.	.	.	.	.	.	32ff\JJJ)	.	.	.	.	.	.	.	.	.	.
32g'/LLL	.	32ee-\LLL	.	.	.	.	4g\	-sus	.	4ee-\	pi-	.	.	.	.	.	.	.	.	.
32g'/	.	32ee-\	.	.	.	.	.	.	.	.	.	.	.	.	.	.	.	.	.	.
32b-'/	.	32gg\	.	.	.	.	.	.	.	.	.	.	.	.	.	.	.	.	.	.
32g'/JJJ	.	32ee-\JJJ	.	.	.	.	.	.	.	.	.	.	.	.	.	.	.	.	.	.
32g'/LLL	.	32ee-\LLL	.	.	.	.	.	.	.	.	.	.	.	.	.	.	.	.	.	.
32g'/	.	32ee-\	.	.	.	.	.	.	.	.	.	.	.	.	.	.	.	.	.	.
32b-'/	.	32gg\	.	.	.	.	.	.	.	.	.	.	.	.	.	.	.	.	.	.
32g'/JJJ	.	32ee-\JJJ	.	.	.	.	.	.	.	.	.	.	.	.	.	.	.	.	.	.
=25	=25	=25	=25	=25	=25	=25	=25	=25	=25	=25	=25	=25	=25	=25	=25	=25	=25	=25	=25	=25
32dd\LLL	.	32ff\LLL	.	1ryy	1r	.	8.a-\	paſ-	.	8.ff\	-la-	.	1r	.	1r	.	1r	.	1r	.
32dd\	.	32ff\	.	.	.	.	.	.	.	.	.	.	.	.	.	.	.	.	.	.
32ff\	.	32aa-\	.	.	.	.	.	.	.	.	.	.	.	.	.	.	.	.	.	.
32dd\JJJ	.	32ff\JJJ	.	.	.	.	.	.	.	.	.	.	.	.	.	.	.	.	.	.
*rep	*	*	*	*	*	*	*	*	*	*	*	*	*	*	*	*	*	*	*	*
32dd\LLL	.	32ff\LLL	.	.	.	.	.	.	.	.	.	.	.	.	.	.	.	.	.	.
32dd\	.	32ff\	.	.	.	.	.	.	.	.	.	.	.	.	.	.	.	.	.	.
32ff\	.	32aa-\	.	.	.	.	16f\	-sus	.	16a-\	-to	.	.	.	.	.	.	.	.	.
32dd\JJJ	.	32ff\JJJ	.	.	.	.	.	.	.	.	.	.	.	.	.	.	.	.	.	.
*Xrep	*	*	*	*	*	*	*	*Xij	*	*	*Xij	*	*	*	*	*	*	*	*	*
!LO:TX:t=P:problem=mixed beam	!	!	!	!	!	!	!	!	!	!	!	!	!	!	!	!	!	!	!	!
32ee-\LLL	.	32ee-\LLL	.	.	.	.	16f\LL	et	.	(16a-\LL	et	.	.	.	.	.	.	.	.	.
32g/	.	32ee-\	.	.	.	.	.	.	.	.	.	.	.	.	.	.	.	.	.	.
32b-/	.	32gg\	.	.	.	.	16e-\JJ	.	.	16g\JJ)	.	.	.	.	.	.	.	.	.	.
32g/JJJ	.	32ee-\JJJ	.	.	.	.	.	.	.	.	.	.	.	.	.	.	.	.	.	.
32g/LLL	.	32ee-\LLL	.	.	.	.	16g\LL	se-	.	16ee-\LL	se-	.	.	.	.	.	.	.	.	.
32g/	.	32ee-\	.	.	.	.	.	.	.	.	.	.	.	.	.	.	.	.	.	.
32b-/	.	32gg\	.	.	.	.	16e-\JJ	.	.	16g\JJ	.	.	.	.	.	.	.	.	.	.
32g/JJJ	.	32ee-\JJJ	.	.	.	.	.	.	.	.	.	.	.	.	.	.	.	.	.	.
32g/LLL	.	32ee-\LLL	.	.	.	.	16e-\	-pul-	.	16g\	-pul-	.	.	.	.	.	.	.	.	.
32g/	.	32ee-\	.	.	.	.	.	.	.	.	.	.	.	.	.	.	.	.	.	.
32f/	.	32dd\	.	.	.	.	16d\	-tus	.	16f\	-tus	.	.	.	.	.	.	.	.	.
32f/JJJ	.	32dd\JJJ	.	.	.	.	.	.	.	.	.	.	.	.	.	.	.	.	.	.
32f/LLL	.	32dd\LLL	.	.	.	.	8d\	est	.	8f\	est	.	.	.	.	.	.	.	.	.
32f/	.	32dd\	.	.	.	.	.	.	.	.	.	.	.	.	.	.	.	.	.	.
32f/	.	32dd\	.	.	.	.	.	.	.	.	.	.	.	.	.	.	.	.	.	.
32f/JJJ	.	32dd\JJJ	.	.	.	.	.	.	.	.	.	.	.	.	.	.	.	.	.	.
!LO:TX:t=P:problem=mixed beam	!	!	!	!	!	!	!	!	!	!	!	!	!	!	!	!	!	!	!	!
32f/LLL	.	32dd\LLL	.	.	.	.	8r	.	.	8r	.	.	.	.	.	.	.	.	.	.
32f/	.	32dd\	.	.	.	.	.	.	.	.	.	.	.	.	.	.	.	.	.	.
32dd\	.	32ff\	.	.	.	.	.	.	.	.	.	.	.	.	.	.	.	.	.	.
32dd\JJJ	.	32ff\JJJ	.	.	.	.	.	.	.	.	.	.	.	.	.	.	.	.	.	.
32b-\LLL	.	32dd\LLL	.	.	.	.	16d\	paſ-	.	16ff\	paſ-	.	.	.	.	.	.	.	.	.
32b-\	.	32dd\	.	.	.	.	.	.	.	.	.	.	.	.	.	.	.	.	.	.
32dd\	.	32ff\	.	.	.	.	16d\	-sus	.	16ff\	-sus	.	.	.	.	.	.	.	.	.
32dd\JJJ	.	32ff\JJJ	.	.	.	.	.	.	.	.	.	.	.	.	.	.	.	.	.	.
!	!	!	!	!	!	!	!LO:LB:g=original	!	!	!	!	!	!	!	!	!	!	!	!	!
=26	=26	=26	=26	=26	=26	=26	=26	=26	=26	=26	=26	=26	=26	=26	=26	=26	=26	=26	=26	=26
*tremolo	*	*	*	*	*	*	*	*	*	*	*	*	*	*	*	*	*	*	*	*
*	*	*tremolo	*	*	*	*	*	*	*	*	*	*	*	*	*	*	*	*	*	*
!LO:TX:a:t=....:note=pomocniczy zapis tremola	!	!	!	!	!	!	!	!	!	!	!	!	!	!	!	!	!	!	!	!
!	!	!	!	!	!	!	!	!	!	!	!	!	!	!	!	!	!	!	!LO:TX:t=P:problem=takt dopisany na niższej pięciolinii	!
!	!	!LO:TX:a:t=....:note=pomocniczy zapis tremola	!	!	!	!	!	!	!	!	!	!	!	!	!	!	!	!	!	!
!LO:TX:t=P:problem=zapis tremola jako 4	!	!LO:TX:t=P:problem=zapis tremola jako 4	!	!	!	!	!	!	!	!	!	!	!	!	!	!	!	!	!	!
64ee-\LLL	.	64gg\LLL	.	1ryy	1r	.	8e-\	et	.	8gg\	et	.	4B-/	.	4b-/	.	4ee-\	.	4gg\	.
64ee-\	.	64gg\	.	.	.	.	.	.	.	.	.	.	.	.	.	.	.	.	.	.
64ee-\	.	64gg\	.	.	.	.	.	.	.	.	.	.	.	.	.	.	.	.	.	.
64ee-\	.	64gg\	.	.	.	.	.	.	.	.	.	.	.	.	.	.	.	.	.	.
64ee-\	.	64gg\	.	.	.	.	.	.	.	.	.	.	.	.	.	.	.	.	.	.
64ee-\	.	64gg\	.	.	.	.	.	.	.	.	.	.	.	.	.	.	.	.	.	.
64ee-\	.	64gg\	.	.	.	.	.	.	.	.	.	.	.	.	.	.	.	.	.	.
64ee-\JJJ	.	64gg\JJJ	.	.	.	.	.	.	.	.	.	.	.	.	.	.	.	.	.	.
!LO:TX:t=P:problem=zapis tremola jako 4	!	!LO:TX:a:t=...:note=pomocniczy zapis tremola	!	!	!	!	!	!	!	!	!	!	!	!	!	!	!	!	!	!
!LO:TX:b:t=....:note=pomocniczy zapis tremola	!	!LO:TX:t=P:problem=zapis tremola jako 4	!	!	!	!	!	!	!	!	!	!	!	!	!	!	!	!	!	!
64g/LLL	.	64ee-\LLL	.	.	.	.	8g\	se-	.	8ee-\	se-	.	.	.	.	.	.	.	.	.
64g/	.	64ee-\	.	.	.	.	.	.	.	.	.	.	.	.	.	.	.	.	.	.
64g/	.	64ee-\	.	.	.	.	.	.	.	.	.	.	.	.	.	.	.	.	.	.
64g/	.	64ee-\	.	.	.	.	.	.	.	.	.	.	.	.	.	.	.	.	.	.
64g/	.	64ee-\	.	.	.	.	.	.	.	.	.	.	.	.	.	.	.	.	.	.
64g/	.	64ee-\	.	.	.	.	.	.	.	.	.	.	.	.	.	.	.	.	.	.
64g/	.	64ee-\	.	.	.	.	.	.	.	.	.	.	.	.	.	.	.	.	.	.
64g/JJJ	.	64ee-\JJJ	.	.	.	.	.	.	.	.	.	.	.	.	.	.	.	.	.	.
!LO:TX:t=P:problem=zapis tremola jako 4	!	!	!	!	!	!	!	!	!	!	!	!	!	!	!	!	!	!	!	!
!LO:TX:b:t=....:note=pomocniczy zapis tremola	!	!LO:TX:t=P:problem=zapis tremola jako 4	!	!	!	!	!	!	!	!	!	!	!	!	!	!	!	!	!	!
64e-/LLL	.	64cc\LLL	.	.	.	.	8e-\	-pul-	.	8cc\	-pul-	.	4r	.	4r	.	4cc\	.	4ff\	.
64e-/	.	64cc\	.	.	.	.	.	.	.	.	.	.	.	.	.	.	.	.	.	.
64e-/	.	64cc\	.	.	.	.	.	.	.	.	.	.	.	.	.	.	.	.	.	.
64e-/	.	64cc\	.	.	.	.	.	.	.	.	.	.	.	.	.	.	.	.	.	.
64e-/	.	64cc\	.	.	.	.	.	.	.	.	.	.	.	.	.	.	.	.	.	.
64e-/	.	64cc\	.	.	.	.	.	.	.	.	.	.	.	.	.	.	.	.	.	.
64e-/	.	64cc\	.	.	.	.	.	.	.	.	.	.	.	.	.	.	.	.	.	.
64e-/JJJ	.	64cc\JJJ	.	.	.	.	.	.	.	.	.	.	.	.	.	.	.	.	.	.
!LO:TX:t=P:problem=zapis tremola jako 4	!	!LO:TX:t=P:problem=zapis tremola jako 4	!	!	!	!	!	!	!	!	!	!	!	!	!	!	!	!	!	!
64c/LLL	.	64an/LLL	.	.	.	.	8c\	-tus	.	8an\	-tus	.	.	.	.	.	.	.	.	.
64c/	.	64an/	.	.	.	.	.	.	.	.	.	.	.	.	.	.	.	.	.	.
64c/	.	64an/	.	.	.	.	.	.	.	.	.	.	.	.	.	.	.	.	.	.
64c/	.	64an/	.	.	.	.	.	.	.	.	.	.	.	.	.	.	.	.	.	.
64c/	.	64an/	.	.	.	.	.	.	.	.	.	.	.	.	.	.	.	.	.	.
64c/	.	64an/	.	.	.	.	.	.	.	.	.	.	.	.	.	.	.	.	.	.
64c/	.	64an/	.	.	.	.	.	.	.	.	.	.	.	.	.	.	.	.	.	.
64c/JJJ	.	64an/JJJ	.	.	.	.	.	.	.	.	.	.	.	.	.	.	.	.	.	.
*Xtremolo	*	*Xtremolo	*	*	*	*	*	*	*	*	*	*	*	*	*	*	*	*	*	*
!LO:LB:g=original	!	!	!	!	!	!	!	!	!	!	!	!	!	!	!	!	!	!	!	!
32d/LLL	.	32b-\LLL	.	.	.	.	4d\	est	.	4b-\	est	.	4B-/	.	4b-/	.	4b-\	.	4dd\	.
32d/	.	32b-\	.	.	.	.	.	.	.	.	.	.	.	.	.	.	.	.	.	.
32f/	.	32dd\	.	.	.	.	.	.	.	.	.	.	.	.	.	.	.	.	.	.
32f/JJJ	.	32dd\JJJ	.	.	.	.	.	.	.	.	.	.	.	.	.	.	.	.	.	.
32d/LLL	.	32b-\LLL	.	.	.	.	.	.	.	.	.	.	.	.	.	.	.	.	.	.
32d/	.	32b-\	.	.	.	.	.	.	.	.	.	.	.	.	.	.	.	.	.	.
32f/	.	32dd\	.	.	.	.	.	.	.	.	.	.	.	.	.	.	.	.	.	.
32f/JJJ	.	32dd\JJJ	.	.	.	.	.	.	.	.	.	.	.	.	.	.	.	.	.	.
32dd\LLL	.	32ff\LLL	.	.	.	.	8re	.	.	8r	.	.	4r	.	4r	.	4r	.	4r	.
32dd\	.	32ff\	.	.	.	.	.	.	.	.	.	.	.	.	.	.	.	.	.	.
32b-\	.	32dd\	.	.	.	.	.	.	.	.	.	.	.	.	.	.	.	.	.	.
32b-\JJJ	.	32dd\JJJ	.	.	.	.	.	.	.	.	.	.	.	.	.	.	.	.	.	.
32dd\LLL	.	32ff\LLL	.	.	.	.	16f\	paſ-	.	16dd\	pas-	.	.	.	.	.	.	.	.	.
32dd\	.	32ff\	.	.	.	.	.	.	.	.	.	.	.	.	.	.	.	.	.	.
!	!	!	!	!	!	!	!	!	!	!LO:SIC:v:l:s=-sus	!	!	!	!	!	!	!	!	!	!
32b-\	.	32dd\	.	.	.	.	16f\	-sus	.	16dd\	-ſu	.	.	.	.	.	.	.	.	.
32b-\JJJ	.	32dd\JJJ	.	.	.	.	.	.	.	.	.	.	.	.	.	.	.	.	.	.
!	!	!LO:LB:g=original	!	!	!	!	!	!	!	!LO:LB:g=original	!	!	!	!	!	!	!	!	!	!
=27	=27	=27	=27	=27	=27	=27	=27	=27	=27	=27	=27	=27	=27	=27	=27	=27	=27	=27	=27	=27
*tremolo	*	*tremolo	*	*	*	*	*	*	*	*	*	*	*	*	*	*	*	*	*	*
!	!	!LO:TX:a:t=....:note=pomocniczy zapis tremola	!	!	!	!	!	!	!	!	!	!	!	!	!	!	!	!	!	!
!LO:TX:t=P:problem=zapis tremola jako 4	!	!LO:TX:t=P:problem=zapis tremola jako 4	!	!	!	!	!	!	!	!	!	!	!	!	!	!	!	!	!	!
64g/LLL	.	64ee-\LLL	.	1ryy	1r	.	8g\	et	.	8ee-\	et	.	4B-/	pp	4b-/	pp	4r	.	4r	.
64g/	.	64ee-\	.	.	.	.	.	.	.	.	.	.	.	.	.	.	.	.	.	.
64g/	.	64ee-\	.	.	.	.	.	.	.	.	.	.	.	.	.	.	.	.	.	.
64g/	.	64ee-\	.	.	.	.	.	.	.	.	.	.	.	.	.	.	.	.	.	.
64g/	.	64ee-\	.	.	.	.	.	.	.	.	.	.	.	.	.	.	.	.	.	.
64g/	.	64ee-\	.	.	.	.	.	.	.	.	.	.	.	.	.	.	.	.	.	.
64g/	.	64ee-\	.	.	.	.	.	.	.	.	.	.	.	.	.	.	.	.	.	.
64g/JJJ	.	64ee-\JJJ	.	.	.	.	.	.	.	.	.	.	.	.	.	.	.	.	.	.
!	!	!LO:TX:a:t=...:note=pomocniczy zapis tremola	!	!	!	!	!	!	!	!	!	!	!	!	!	!	!	!	!	!
!LO:TX:t=P:problem=zapis tremola jako 4	!	!LO:TX:t=P:problem=zapis tremola jako 4	!	!	!	!	!	!	!	!	!	!	!	!	!	!	!	!	!	!
64e-/LLL	.	64cc\LLL	.	.	.	.	8e-\	se-	.	8cc\	se-	.	.	.	.	.	.	.	.	.
64e-/	.	64cc\	.	.	.	.	.	.	.	.	.	.	.	.	.	.	.	.	.	.
64e-/	.	64cc\	.	.	.	.	.	.	.	.	.	.	.	.	.	.	.	.	.	.
64e-/	.	64cc\	.	.	.	.	.	.	.	.	.	.	.	.	.	.	.	.	.	.
64e-/	.	64cc\	.	.	.	.	.	.	.	.	.	.	.	.	.	.	.	.	.	.
64e-/	.	64cc\	.	.	.	.	.	.	.	.	.	.	.	.	.	.	.	.	.	.
64e-/	.	64cc\	.	.	.	.	.	.	.	.	.	.	.	.	.	.	.	.	.	.
64e-/JJJ	.	64cc\JJJ	.	.	.	.	.	.	.	.	.	.	.	.	.	.	.	.	.	.
!LO:TX:t=P:problem=zapis tremola jako 4	!	!LO:TX:t=P:problem=zapis tremola jako 4	!	!	!	!	!	!	!	!	!	!	!	!	!	!	!	!	!	!
64d/LLL	.	64b-\LLL	.	.	.	.	8d\	-pul-	.	8b-\	-pul-	.	4r	.	4r	.	8r	.	8r	.
64d/	.	64b-\	.	.	.	.	.	.	.	.	.	.	.	.	.	.	.	.	.	.
64d/	.	64b-\	.	.	.	.	.	.	.	.	.	.	.	.	.	.	.	.	.	.
64d/	.	64b-\	.	.	.	.	.	.	.	.	.	.	.	.	.	.	.	.	.	.
64d/	.	64b-\	.	.	.	.	.	.	.	.	.	.	.	.	.	.	.	.	.	.
64d/	.	64b-\	.	.	.	.	.	.	.	.	.	.	.	.	.	.	.	.	.	.
64d/	.	64b-\	.	.	.	.	.	.	.	.	.	.	.	.	.	.	.	.	.	.
64d/JJJ	.	64b-\JJJ	.	.	.	.	.	.	.	.	.	.	.	.	.	.	.	.	.	.
!LO:TX:t=P:problem=zapis tremola jako 4	!	!LO:TX:t=P:problem=zapis tremola jako 4	!	!	!	!	!	!	!	!	!	!	!	!	!	!	!	!	!	!
64c/LLL	.	64an\LLL	.	.	.	.	8c\	-tus	.	8an\	-tus	.	.	.	.	.	8e-/	.	8a\	.
64c/	.	64an\	.	.	.	.	.	.	.	.	.	.	.	.	.	.	.	.	.	.
64c/	.	64an\	.	.	.	.	.	.	.	.	.	.	.	.	.	.	.	.	.	.
64c/	.	64an\	.	.	.	.	.	.	.	.	.	.	.	.	.	.	.	.	.	.
64c/	.	64an\	.	.	.	.	.	.	.	.	.	.	.	.	.	.	.	.	.	.
64c/	.	64an\	.	.	.	.	.	.	.	.	.	.	.	.	.	.	.	.	.	.
64c/	.	64an\	.	.	.	.	.	.	.	.	.	.	.	.	.	.	.	.	.	.
64c/JJJ	.	64an\JJJ	.	.	.	.	.	.	.	.	.	.	.	.	.	.	.	.	.	.
*	*	*Xtremolo	*	*	*	*	*	*	*	*	*	*	*	*	*	*	*	*	*	*
*Xtremolo	*	*	*	*	*	*	*	*	*	*	*	*	*	*	*	*	*	*	*	*
.	.	.	.	.	.	.	.	.	.	8qqa/	.	.	.	.	.	.	.	.	.	.
32d/LLL	.	32b-\LLL	.	.	.	.	4d\	est	.	4b-\	est	.	4B-/	.	4b-/	.	4d/	.	4b-\	.
32d/	.	32b-\	.	.	.	.	.	.	.	.	.	.	.	.	.	.	.	.	.	.
32f/	.	32dd\	.	.	.	.	.	.	.	.	.	.	.	.	.	.	.	.	.	.
32f/JJJ	.	32dd\JJJ	.	.	.	.	.	.	.	.	.	.	.	.	.	.	.	.	.	.
*	*	*rep	*	*	*	*	*	*	*	*	*	*	*	*	*	*	*	*	*	*
32d/LLL	.	32b-\LLL	.	.	.	.	.	.	.	.	.	.	.	.	.	.	.	.	.	.
32d/	.	32b-\	.	.	.	.	.	.	.	.	.	.	.	.	.	.	.	.	.	.
32f/	.	32dd\	.	.	.	.	.	.	.	.	.	.	.	.	.	.	.	.	.	.
32f/JJJ	.	32dd\JJJ	.	.	.	.	.	.	.	.	.	.	.	.	.	.	.	.	.	.
*	*	*Xrep	*	*	*	*	*	*	*	*	*	*	*	*	*	*	*	*	*	*
32g/LLL	.	32ee-\LLL	.	.	.	.	4r	.	.	4r	.	.	4r	.	4r	.	8r	.	8r	.
32g/	.	32ee-\	.	.	.	.	.	.	.	.	.	.	.	.	.	.	.	.	.	.
32e-/	.	32cc\	.	.	.	.	.	.	.	.	.	.	.	.	.	.	.	.	.	.
32e-/JJJ	.	32cc\JJJ	.	.	.	.	.	.	.	.	.	.	.	.	.	.	.	.	.	.
32g/LLL	.	32ee-\LLL	.	.	.	.	.	.	.	.	.	.	.	.	.	.	8cc\	.	8ee-\	.
32g/	.	32ee-\	.	.	.	.	.	.	.	.	.	.	.	.	.	.	.	.	.	.
32e-/	.	32an\	.	.	.	.	.	.	.	.	.	.	.	.	.	.	.	.	.	.
32e-/JJJ	.	32a\JJJ	.	.	.	.	.	.	.	.	.	.	.	.	.	.	.	.	.	.
=28	=28	=28	=28	=28	=28	=28	=28	=28	=28	=28	=28	=28	=28	=28	=28	=28	=28	=28	=28	=28
!	!	!	!	!	!	!	!	!	!LO:DY:a	!	!	!LO:DY:a	!	!	!	!	!	!	!	!
32d/LLL	.	32b-\LLL	.	1ryy	1r	.	8r	.	pp	8r	.	pp	4B-/	.	4b-/	.	4b-\	pp	4dd\	.
32d/	.	32b-\	.	.	.	.	.	.	.	.	.	.	.	.	.	.	.	.	.	.
32f/	.	32dd\	.	.	.	.	.	.	.	.	.	.	.	.	.	.	.	.	.	.
32f/JJJ	.	32dd\JJJ	.	.	.	.	.	.	.	.	.	.	.	.	.	.	.	.	.	.
32d/LLL	.	32b-\LLL	.	.	.	.	8d\	se-	.	8f/	se-	.	.	.	.	.	.	.	.	.
32d/	.	32b-\	.	.	.	.	.	.	.	.	.	.	.	.	.	.	.	.	.	.
32f/	.	32dd\	.	.	.	.	.	.	.	.	.	.	.	.	.	.	.	.	.	.
32f/JJJ	.	32dd\JJJ	.	.	.	.	.	.	.	.	.	.	.	.	.	.	.	.	.	.
32g-X/LLL	.	32ee-\LLL	.	.	.	.	8e-\	-pul-	.	8g-X\	-pul-	.	4r	.	4r	.	8r	.	8r	.
32g-/	.	32ee-\	.	.	.	.	.	.	.	.	.	.	.	.	.	.	.	.	.	.
32e-/	.	32gg-X\	.	.	.	.	.	.	.	.	.	.	.	.	.	.	.	.	.	.
32e-/JJJ	.	32gg-\JJJ	.	.	.	.	.	.	.	.	.	.	.	.	.	.	.	.	.	.
32g-/LLL	.	32ee-\LLL	.	.	.	.	8e-\	-tus	.	8g-\	-tus	.	.	.	.	.	8e-/	.	8g-X/	pp
32g-/	.	32ee-\	.	.	.	.	.	.	.	.	.	.	.	.	.	.	.	.	.	.
32e-/	.	32an\	.	.	.	.	.	.	.	.	.	.	.	.	.	.	.	.	.	.
32e-/JJJ	.	32a\JJJ	.	.	.	.	.	.	.	.	.	.	.	.	.	.	.	.	.	.
32d/LLL	.	32b-\LLL	.	.	.	.	4d\	est	.	4f\	est	.	2B-;/	.	2b-;/	.	8d/L	.	8f/L	.
32d/	.	32b-\	.	.	.	.	.	.	.	.	.	.	.	.	.	.	.	.	.	.
32f/	.	32dd\	.	.	.	.	.	.	.	.	.	.	.	.	.	.	.	.	.	.
32f/JJJ	.	32dd\JJJ	.	.	.	.	.	.	.	.	.	.	.	.	.	.	.	.	.	.
32d/LLL	.	32b-\LLL	.	.	.	.	.	.	.	.	.	.	.	.	.	.	8d/J	.	8f/J	.
32d/	.	32b-\	.	.	.	.	.	.	.	.	.	.	.	.	.	.	.	.	.	.
32f/	.	32dd\	.	.	.	.	.	.	.	.	.	.	.	.	.	.	.	.	.	.
32f/JJJ	.	32dd\JJJ	.	.	.	.	.	.	.	.	.	.	.	.	.	.	.	.	.	.
4d;</	.	4b-;\	.	.	.	.	4r	.	.	4r	.	.	.	.	.	.	4d;</	.	4f;</	.
==	==	==	==	==	==	==	==	==	==	==	==	==	==	==	==	==	==	==	==	==
*-	*-	*-	*-	*-	*-	*-	*-	*-	*-	*-	*-	*-	*-	*-	*-	*-	*-	*-	*-	*-
!!!system-decoration: [(g1)][(g2)](s8)[(g3)][(g4)](s16)
!!!RDF**kern: > = above
!!!RDF**kern: < = below
!!!ENC: Tomasz Grochalski
!!!END: 2020-08-07
!!!ENC: Kamil Watkowski
!!!END: 2022-03-11
!!!YEC: Copyright 2022 Narodowy Instytut Fryderyka Chopina (https://polishscores.org)
!!!YEM: Licence CC BY 4.0 (https://creativecommons.org/licenses/by/4.0)
